X:1
T:Felix Horetzky - 60 National Airs of Different Nations
T:1.  March by Rossini from Ricciardo e Zoraide 2.  Russian Air. 3.  Andante by Beethoven 4.  The Last Rose of Summer 4.  The Last Rose of Summer 6.  Un Noel 7.  Le Petit Tambour 8.  Russian Air 9.  Polish National 10. Untitled 11. German Air 12. Russian Hymn 13. John Anderson, My Jo 14. Tyrolian Air 15. Danish Air 16. Cherubini's Air 17. Polish Hymn 18. Kelvin Grove 19. Podolian Air 20. Fra Tante Angoscie 21. Au Clair De la Lune 22. Dutch Air 23. Portuguese Hymn 24. Air by Gelinek 25. Pyrenese Melody 26. Polish Air. 27. Scotch Air 28. Pleyel's Hymn 29. Scotch Air. “Donald.” 30. Sicilian Mariner's Hymn 
T:31. Auld Lang Syne 32. German Air 33. Scots Wha Hae Wi' Wallace Bled 34. Vive Henri Quatre 35. Air from the Ballet of Nina 36. Danish Air 37. Post Horn Waltz 38. Old German Air 39. Air. 40. Polish Air . Krakoviak 41. Scotch Air 42. Swedish Air 43. Danish Air 44. Il Pleut Il Pleut Bergere. 45. Rule Britannia 46. “C'est L'Amour” a French Air 47. Scotch Air 48. An Alexis 49. March by Rossini 50. Je Suis Lindor 51. Scotch Air. Kelso 52. Polish Air. Krakoviak 53. German Air 54. March by Gallenberg 55. Rousseau's Dream 56. Chanson Des Marseillois 57. Old Saxon Air 58. Sul Margine D'un Rio 59. Venetian Air. “La Biondina” 60. Care Pupille By Blangini
T:Nº. 1. March by Rossini (from Ricciardo e Zoraide)
T:Nº. 2. Russian Air.
T:Nº. 3. Andante by Beethoven.
T:Nº. 4. The Last Rose of Summer.
T:Nº. 5. French Air.
T:Nº. 6. Un Noel.
T:an old French Air.
T:Nº. 7. Le Petit Tambour.
T:Nº. 8. Russian Air.
T:Nº. 9. Polish National Air.
T:Nº. 10. Untitled.
T:Nº. 11. German Air.
T:Nº. 12. Russian Hymn.
T:Nº. 13. John Anderson, My Jo.
T:Nº. 14. Tyrolian Air.
T:Nº. 15. Danish Air.
T:Nº. 16. Cherubini's Air.
T:(from Faniska)
T:Nº. 17. Polish Hymn.
T:Nº. 18. Kelvin Grove.
T:Nº. 19. Podolian Air.
T:Nº. 20. Fra Tante Angoscie.
T:Nº. 21. Au Clair De la Lune.
T:Nº. 22. Dutch Air.
T:Nº. 23. Portuguese Hymn.
T:Nº. 24. Air by Gelinek.
T:Nº. 25. Pyrenese Melody.
T:Nº. 26. Polish Air.
T:Nº. 27. Scotch Air.
T:Nº. 28. Pleyel's Hymn.
T:Nº. 29. Scotch Air. “Donald.”
T:Nº. 30. Sicilian Mariner's Hymn
T:Nº. 31. Auld Lang Syne.
T:Nº. 32. German Air.
T:Nº. 33. Scots Wha Hae Wi' Wallace Bled.
T:Nº. 34. Vive Henri Quatre.
T:Nº. 35. Air from the Ballet of Nina.
T:Nº. 36. Danish Air.
T:Nº. 37. Post Horn Waltz.
T:Nº. 39. Air. from the Ballet of Alfred the Great.
T:Nº. 40. Air.
T:Nº. 41. Scotch Air.
T:Nº. 42. Swedish Air.
T:Nº. 43. Danish Air.
T:Nº. 44. Il Pleut, Il Pleut, Bergère.
T:Nº. 45. Rule Britannia.
T:Nº. 46. “C'est L'Amour” a French Air.
T:Nº. 47. Scotch Air.
T:Nº. 48. An Alexis.
T:Nº. 49. March by Rossini
T:Nº. 50. Je Suis Lindor.
T:Nº. 51. Scotch Air. Kelso.
T:Nº. 52. Polish Air. Krakoviak.
T:Nº. 53. German Air.
T:Nº. 54. March by Gallenberg
T:Nº. 55. Rousseau's Dream.
T:Nº. 56. Chanson Des Marseillois.
T:Nº. 57. Old Saxon Air.
T:Nº. 58. Sul Margine D'un Rio.
T:Nº. 59. Venetian Air. “La Biondina”.
T:Antonio Lamberti (1757-1832)
T:Nº. 60. Care Pupille By Blangini.
T:Pubblico dominio - Scritto con MuseScore, un software libero e gratuito: http://musescore.org/it 
T:Pubblico dominio - Scritto con MuseScore, un software libero e gratuito: http://musescore.org/it 
T:Pubblico dominio - Scritto con MuseScore, un software libero e gratuito: http://musescore.org/it 
T:Pubblico dominio - Scritto con MuseScore, un software libero e gratuito: http://musescore.org/it 
T:Pubblico dominio - Scritto con MuseScore, un software libero e gratuito: http://musescore.org/it 
T:Pubblico dominio - Scritto con MuseScore, un software libero e gratuito: http://musescore.org/it 
T:Pubblico dominio - Scritto con MuseScore, un software libero e gratuito: http://musescore.org/it 
T:Pubblico dominio - Scritto con MuseScore, un software libero e gratuito: http://musescore.org/it 
T:Pubblico dominio - Scritto con MuseScore, un software libero e gratuito: http://musescore.org/it 
T:Pubblico dominio - Scritto con MuseScore, un software libero e gratuito: http://musescore.org/it 
T:Pubblico dominio - Scritto con MuseScore, un software libero e gratuito: http://musescore.org/it 
T:Pubblico dominio - Scritto con MuseScore, un software libero e gratuito: http://musescore.org/it 
T:Pubblico dominio - Scritto con MuseScore, un software libero e gratuito: http://musescore.org/it 
T:Pubblico dominio - Scritto con MuseScore, un software libero e gratuito: http://musescore.org/it 
T:Pubblico dominio - Scritto con MuseScore, un software libero e gratuito: http://musescore.org/it 
T:Pubblico dominio - Scritto con MuseScore, un software libero e gratuito: http://musescore.org/it 
T:Pubblico dominio - Scritto con MuseScore, un software libero e gratuito: http://musescore.org/it 
T:Pubblico dominio - Scritto con MuseScore, un software libero e gratuito: http://musescore.org/it 
T:Pubblico dominio - Scritto con MuseScore, un software libero e gratuito: http://musescore.org/it 
T:Pubblico dominio - Scritto con MuseScore, un software libero e gratuito: http://musescore.org/it 
T:Pubblico dominio - Scritto con MuseScore, un software libero e gratuito: http://musescore.org/it 
T:Pubblico dominio - Scritto con MuseScore, un software libero e gratuito: http://musescore.org/it 
T:Pubblico dominio - Scritto con MuseScore, un software libero e gratuito: http://musescore.org/it 
T:Pubblico dominio - Scritto con MuseScore, un software libero e gratuito: http://musescore.org/it 
T:Pubblico dominio - Scritto con MuseScore, un software libero e gratuito: http://musescore.org/it 
T:Pubblico dominio - Scritto con MuseScore, un software libero e gratuito: http://musescore.org/it 
T:Pubblico dominio - Scritto con MuseScore, un software libero e gratuito: http://musescore.org/it 
T:Pubblico dominio - Scritto con MuseScore, un software libero e gratuito: http://musescore.org/it 
T:Pubblico dominio - Scritto con MuseScore, un software libero e gratuito: http://musescore.org/it 
T:Pubblico dominio - Scritto con MuseScore, un software libero e gratuito: http://musescore.org/it 
T:Pubblico dominio - Scritto con MuseScore, un software libero e gratuito: http://musescore.org/it 
T:Pubblico dominio - Scritto con MuseScore, un software libero e gratuito: http://musescore.org/it 
T:Pubblico dominio - Scritto con MuseScore, un software libero e gratuito: http://musescore.org/it 
T:Pubblico dominio - Scritto con MuseScore, un software libero e gratuito: http://musescore.org/it 
T:Pubblico dominio - Scritto con MuseScore, un software libero e gratuito: http://musescore.org/it 
C:Felix Horetzky
C:(1796-1870)
Z:Pubblico dominio - Scritto con MuseScore, un software libero e gratuito: http://musescore.org/it
Z:
%%score ( 1 2 3 4 )
L:1/8
M:4/4
K:D
V:1 treble-8 nm="Chitarra classica"
V:2 treble-8 
V:3 treble-8 
V:4 treble-8 
V:1
!f! f2 e>f d2 d2 | e4 A2 z2 | d2 e>f g>a f>g | e2!<(! e/A/c/!<)!e/!f! a2 z2 || %4
S!p! f2{gf} e>f d2 d2 | e4 A2 z2 | z3/2 A/ d>e fa/>g/ eg/>f/ | d2- d/d/f/a/!f! d'2 z2!fine! :| %8
!p! [ce]2 [Ac]>[Bd] [ce]2 [df]2 | g4 b2 z2 |"_dolce." f>g f2- fedc | d>c B2 _b2 a z!D.S.! || %12
[K:D][M:2/4][Q:1/4=100]!p! [FA][Af] [^Gf][=Ge] | dc/B/ AB/c/ | d[Af] [Bg][Af] | !>![Ge]2 !>![GB]2 | %16
 [EGB][Bg] [^Ag][=Af] | fe =dB | Ad [ce]>f | d2 z2 || d"_dolce."d cB | !>!a2 !>!g2 | cc f>e | %23
 !>!e2 !>!d2 | ff ed | d2 =c2 | Ad [^Ad]>c | B2 z2 |!mf! [ce]2 !>!f>e | d4 | [ce]2 f>e | d4 | %32
 eg fe | [Be][Gd] [Gd][Ec] | F[DB] [^Gd]>[^Ac] | [DB]4 |!f! [ce][ce] [df][cg] | a2 g>e | Ad f>e | %39
 d4 |][K:D][M:3/8][Q:1/4=60] A | Add | d/>c/c/>B/c/>A/ | d2 [Ae] | g/>f/e{f} e/4^d/4e/4f/4 | %45
 !>!g2 f | bea | d!>!gf | [^B^d][ce] z/ A/ | A/d/d/d/d/d/ | d/>c/c/>B/c/>A/ | d2 e | %52
 g/>f/e{f} e/4^d/4e/4f/4 | g2 f | bea |{e} d/4c/4d/4e/4 [df][Gce] | d z || z | fe[^df] | %59
 [eg][gb] z | [ce][Bd][ce] | [df][fa]a | a^g^a | bc' d'/>b/ | a2 ^g | a2 c'/>b/ | a2 ^g | %67
 [ca][da]!fermata![ea] | c/d/d/d/d/d/ | d/>c/c/>B/c/>A/ | d2 e | g/>f/e{f} e/4^d/4e/4f/4 | a2 f | %73
 bea |{e} d/4c/4d/4e/4 [df][Gce] | d z |][K:G][M:3/4][Q:1/4=78] G>A | d2 g2 f>e | d2 B2 GA | %79
 B2 (3dcB (3BAG | G2 z2 :| G>A | [Bg]3 [Bg]f>e | d2 z2 d>d | g2- gfe^d | %85
 f{fe^d}e/f/ !fermata![eg] z G>A | B2 g2 f>e | d2 B2 GA | B2"_dolce." (3dcB (3BAG | G2 z2 |] %90
[K:C][M:2/4] c2 c2 | g2 g2 | a2 a2 | g2 g2 | f2 f2 | e2 e2 | d2 d2 | c4 :| g2 g2 | f2 f2 | e2 e2 | %101
 d4 | [eg]2 [eg]2 | [df]2 [df]2 | [ce]2 [ce]2 | [Bd]4 | c2 c2 | [cg]2 g2 | [ca]2 a2 | [ceg]4 | %110
 f2 f2 | [ce]2 e2 | [de]2 [Bd]2 | c4 ||"^Var:" c3 c | g3 g | a3 a | g3 [eg] | z [def] z [df] | %119
 z [de] z [ce] | z [cd] z [Bd] | c4!fine! || g3 g | ^f3 =f | e3 _e | d3 G | g3 g/^f/ | _e3 f/e/ | %128
 _e3 ^f/g/ | d2 z =f/d/!D.C.! ||[M:4/4] E2 | A2 A2 B2 B2 | c>d c>B A2 [Af]2 | %133
 [Ae]2 [Bd]2 [Ac]2 [^GB]2 | A4 z4 || A2 A2 B2 B2 | c>d c>B A2 [Af]2 | e2 e<d"_dolce." d<c c<B | %138
 A4 z2!f! G2 | g2 f>e d2 d2 | e2 d>c B2 B2 | c2 BA ^G2 A2 | !fermata![^GB]4 f2 z2 | A2 A2 B2 B2 | %144
 c>d c>B A2 [Af]2 | e2 e<d"_dolce." d<c c<B | A4 z2 ||[M:2/4] e/d/ |!p! cG EG | cG (d/c/)B/c/ | %150
 dd/>d/ dd | d>G A/B/c/d/ |!f! ee/>e/ ee/>e/ | e(f/e/) de/d/ | cd/c/ (c/B/)A/B/ | c2 C :| c/>B/ | %157
!p! A>A Bc | [Be]2 [Bd][Ac]/[GB]/ | [^FA][FA] [GB][Ac] | dg/f/ e/d/c/B/ | [^FA][FA] [GB][Ac] | %162
 de/d/"_dolce." cd/c/ | Bc/B/ AB/A/ | G2 z G | cc/c/ cc | d2 z G/>G/ | [EGc][EG] EC | %168
!ff! [DG]g z G | cc/c/ cc | c2 z c/c/ | d/c/B/A/ B/A/G/^F/ | G2 z e/d/ |!p! cG EG | cG (d/c/)B/c/ | %175
 dd/>d/ dd | d>G A/B/c/d/ |!f! ee/>e/ ee/>e/ | e(f/e/) de/d/ | cd/c/ (c/B/)A/B/ | c2 C |] %181
[M:2/4][Q:1/4=105] E | A>AA>A | AcBA | ^G>GG>G | ^GBAG | A>AA>A | AcBA | ^G>Be>G | A2 z :|!f! B | %191
 c>cc>c | [Ec][Ge][Fd][^Fc] | BB BB | [^GB][Bd][Ac][GB] | A>AA>A | AcBA | ^GBe>G | A2 z |] %199
[K:A][M:3/4] [ce]2 | [Ac]>[Bd] [ce]2 [ce]2 | [ce][Ac][df]>[ce][Bd][Ac] | [GB][GB] !>!e3 [Bd] | %203
 [Bd]2 [Ac]2 z [Ac] | [Ac]>[Bd] [ce]2 [ce]2 | [ce][Ac][df]>[ce][Bd][Ac] | [GB][GB] e3 [DG] | %207
 A4 z :: [Ac] |!f! [GB][GB] [GB]3 [Bd] | [Bd][Ac] [Ac]2 z2 | [Bd]2 [Bd][Bd][Bd]>[df] | %212
 [df]2 [ce]2 z2 | [Ac][ce][ca]>[eg][df][ce] | !>![c^e]2 f4 | [GB][GB] e3 [DG] | A4 :| %217
[K:C][M:6/8][Q:3/8=78] [Ac]/[Bd]/ | [ce]>[df][ce] [Bd]2 [Ac] | [AB]>cA ^G2 G | A>Bc d<B^G | %221
 A3 z2 :| [Ec]/[=Gd]/ | [ce]2"_dolce." c' [gb]2 [fa] | g>e[ca] [cg]2 e | c>Bc gfe | d>ec B2 G | %227
!f! c>Bc dcd | e2 A ^G2 G | A>Bc d<B^G | A3 z2 ||[K:A][M:2/4][Q:3/8=78] e | aa ge | aa ge | %234
 [df][df] [dg][dg] | [ca]2 z :| e | e'>d' be | aa c'c' | e'>d' b z | aa [Bg]e | [ca][ca] ge | %242
 [df][df] [dg][dg] | [ca]2 z ||[K:G][M:4/4] [GBd]4 [Gce]2 [Gce]2 | [GBd]3 B G2 G2 | %246
 [eg]4 [df]2 [ce]2 | [Bd]4 [^GBe]4 | [Ac]4 [FAd]4 | [GB]3 A B2 ^c2 | [Bd]4 [^A^c]4 | B4 z4 || %252
 [=A=c]4 [GB]2 [FA]2 | [DGB]3 A [GB]2 [Ad]2 | g3 f [GBe]2 [FA^d]2 | e4 [cd]4 | [Bdg]4 [df]2 [ce]2 | %257
 [Bd]6 [Ac]2 | [GB]4 [FA]4 | G4 z4 ||[K:G][M:4/4][Q:1/4=105] e2 | B2 e2 e2 f2 | [Bg]4- [Bg]2 a>g | %263
 f2 e2 d2 ^c2 | e6 e2 | B2 e2 [Be]2 [Bf]2 | [Bg]4- [Bg]2 z [fa] | b2 a2 g2 [ca]2 | [db]4 z d'3 | %269
 b3 a g2 b2 | [bd']4 [ac']2 [gb]2 |{b} a3 g [cf]2 [Bg]2 | [dfa]4 z2 g>a | b2 a2 a2 f2 | %274
 g2 e2 !fermata!b2 e2 | B2 e2 e2 ^d2 | [Ge]4 z2 ||[K:E][M:3/4] B,2 | E>E G>G B>B | %279
 [GB]g !>!e2 (3GBe | [Gf]2 a2 (3FAc | [Ge]2 [Bg]2 (3BAD || E>E G>G B>B | Bg !>!e2 (3GB[^de] | %284
 [cf]2 [ca]2 (3FAc | [Ge]4 :| (3GBe | (3ABd [Adf]2 (3ABd | (3GBe [Bg]2 (3GBe | (3ABd [Adf]2 (3ABd | %290
 (3GBd [Bg]2 B2 | E>E G>G B>B | Bg !>!e2 (3GB[^de] | [cf]2 [ca]2 (3FAc | [Ge]4 || %295
[K:G][M:2/4][Q:1/4=58] B^c/d/ e/>f/ g/>B/ | [AB]/>=c/ B/>A/ GF | %297
 [EG]/>[^DF]/ [EG]/>[FA]/ B/e/^d/e/ |!pp! [ABf][AB] e z ::!f! [Beg]>[B^df] e/>e/ =d/>d/ | %300
 B/>c/ B/>A/ [EG][B,F] | [EG]/>[^DF]/ [EG]/>[FA]/ B/e/^d/e/ |!pp! [ABf][AB] e z :| %303
[K:C][M:4/4] c2 e>d c2 c2 | d2 G2 g4- | gafe df e>d | c4 z2 [eg]>[df] | %307
 [ce]2 [ce]>[Bd] [Ac]2 [Ac]>[GB] | A2 G2 F2 d2 | B4 c2 f2 | ^d4 z2 g2- | g2 f2 e2 d2 | c4 z2 z2 || %313
[M:3/4][Q:1/4=76] [FG][FG] | c2 c2 Bc | d2 d2 [ce][Bf] | [Gdg]2 [Adf]2 [ce][Bd] | c4 :| %318
"_dolce." e>d | cB A2 d>d | BA G2 ed | c2 [Ac]2 f>e | d2 [Bd]2 [ce][B=f] | [_Bg]2 f2 [ce][=Bd] | %324
 c4 ||[M:4/4][Q:3/8=78] c>d | e>g d>e [Ec][GB][FA][EG] | A2 [Ad]2 [Bd]2 cd | %328
 e>g d>e [Ec][GB][FA][EG] | A2 c2 c2 || ee |{g} fefg [ca]2 e>g | ge[Ad]c !fermata!ed[Ec]>[=Fd] | %333
 e>g d>e [Ec][GB][FA][EG] | A2 c2 c2 ||[M:2/4][Q:1/4=98] E |!f! (A/^G/)A/B/ [Ac][Ac] | [AB]B A z | %338
 (c/B/)c/d/ e2 | [Bd][Bd] [ce] z | [cea]2 e/(=f/e/)d/ | cB Ac |!p! [AB]B e>d | c/>d/ B/>c/ A :: %344
!f! A | G/>B/ e A/>c/ e | ^G/B/e/>G/ A z | G/>B/ f A/>c/ e | G/>B/ f [ce] z | [cea]2 e/(f/e/)d/ | %350
 [Ac][^GB] !fermata![FA]2 |!p! [AB]f e>d | [Ac][^GB] A :|[M:2/4][Q:3/8=78] e2 dc | BA !>!G2 | %355
 c2 de | e!4!f !>!!1!d2 | f2 ed | cB !>!A2 | G2 A[GB] | e2 c z || d2 ^cd | e^c d2 | e2 ce | %364
 d2 g z | d2 ^cd | e^c d2 | _e2 [=Ec][Ge] | d !>!g2 f | e2 dc | BA !>!G2 | c2 de | ef !>!d2 | %373
 f2 ed | cB !>!A2 | G2 A[GB] | d2 c z ||[M:2/4][Q:1/4=98] [Ec][Ec][Ec][Gd] | [Ge]2 [Gd]2 | %379
!p! ced[Bd] | c2 z z | cccd | [Ge]2 [Gd]2 | [Ac]edd | c2 z2 | dddd | A2 [GA][GA] | dcBA | G2 z2 | %389
!f! cccd | [ce]2 [Bd]2 | ce[Ad][Bd] | [Cc]4 ||[M:4/4][Q:1/4=85] G2 |!f! [Ec]2 [Ec]2 [Ge]2 [Fd]2 | %395
 [Ec]2 [GB]>[FA] [EG]2 c2 | [GB]2!<(! [Gc]2 [Bf]2 [ce]2!<)! |!f! [ce]2 [Bd]2 [Bd]2 G2 | %398
 c2 c2 [Ge]2 [Gd]2 | c3 B A2 Bc | [Bd][cf][A^f][Bg] [GB]2 [^FA]2 | G4 z2 || G2 | %403
!p! [df]3 [ce] [Bd]3 [Bd] | [ce]3 [Bd] [Ec]2!f! ce | g2 g2 e2 c2 | [ce]2 [Bd]2 z2 G2 | %407
 c2 c2 ed c>B | A2 A2 [Af]3 [Ad] | c2 c2 B>c d>B | [Ac]4 [Bd]4 | [ce]2 d>e g2 [GB]2 | c4 z2 || %413
[M:4/4][Q:1/4=85] G2 | [EGc]4 G2 c2 | [FGd]4 [FG]4 | e2 d2 e2 f2 | [Ge]4 [Gd]2 [Ac]2 | %418
 [Ac]4 [GB]2 [^FA]2 | B2 c2 d2 e2 | [GB]4 A3 G | G4 z4 ||!f! [cg]4 f2 e2 | [Bf]4 [ce]4 | %424
 [Bd]2 [Ge]2 [Gc]2 [Ad]2 | [GB]4 G3 A | [Ec]2 [FB]2 [Gc]2 [Gd]2 | c4 G2 e2 | e2 d2 e2 f2 | %429
 [Ge]4 [Gd]2 [Ge]2 | f2 e2 d2 c2 | [GB]4 [Gc]2 [Ad]2 | [ce]4 d3 c | !fermata!c8 || %434
[K:A][M:2/4][Q:1/4=98] E | A z [Ac] z | [ce]2 [Ac] z | a3/2(b/4a/4 [eg])[df] | [ce]4 | d z B z | %440
 [Ac] z A z | [FB] z G z | A2 z || E | c2 e2 | d2 B2 | A2 [Ac]2 | B4 | [Ac][Bd][^B^d][ce] | %449
{e} [Bd]2 [DGB]2 | A2 B>c | A2 z ||[K:A][M:2/4][Q:3/8=78] [ce]4 | c z A z | B z G z | A2 z2 | %456
 a3 (c'/a/) | [ce] z [Ac] z | [Bd] z e z | [Ac]2 z2 :: A<c c<e | [ce]2 [Bd] z | G<B B<d | %463
 [Bd]2 [Ac] z | [ce]4 | [Ac] z A z | B z G z | A2 z2 :|[K:C][M:3/8][Q:1/4=98]!p! [fa][df][df] | %469
 [eg][ce][ce] | d/f/ a z | [fa][df]f | [eg][ce][ce] | d/f/ d z :|!f! [eg][ce]e | [df]dd | %476
 c/e/ A z | [eg][ce][ce] | [df][Bd][d^g] | !fermata![ca] [da][ea] | [fa][df]f | [eg][ce][ce] | %482
 d/f/ a z | [fa][df][=cf] | [Bg][Be][ce] | d/f/ d z ||[K:D][M:2/4] A | f>f f>d | g>g g>e | %489
 f>f f>d | [ce]2 de | f>f [Af]>[=cd] | ga !fermata!bb | [da]>[eg] [df]>[ce] | d2 z || c' | %496
 [fd']>[gb] [fa]>[=cf] | g>a b>c' | [fd']<[gb] [fa]<[df] | [ce]2 z c' | [fd']>[gb] [fa]>[=cg] | %501
{a} g/f/g/a/ b/c'/!fermata!d'/>b/ | [fa]>[eg] [df][ce] | d2 z || %504
[K:C][M:4/4][Q:1/4=110] [ce]4 [cg]4 | [Bd]6 [ce]2 | f4 d4 | [ce]4 z4 | [ce]4 [cg]4 | [Bd]6 [_Be]2 | %510
 [Af]4 [Bd]4 | c4 z4 || d4 e2 d2 | [Ac]4 d2 c2 | [GB]4 A4 | G6 z2 |!f! [ce]4 [Gcg]4 | %517
 [GBd]6 [_Bce]2 | [Acf]4 [GBd]4 | [EGc]4 z4 ||[K:G][M:4/4][Q:1/4=110] g>a | b3 (3a/g/f/{a} g3 d | %522
 fe dc c<B z d | B<d ga b2 a>g | [dg]2 [dfa]2 z2 ga | b3 (3a/g/f/ g2 z [Gd]/g/ | fe dc{d} c<B z d | %527
 B<d gb d'<b a>b | !fermata!g2{agf} (3gab [ca] [Bg] || d'2 | [bd']2 [ac'][gb] [gb]<[fa] (3abc' | %531
 [gb][fa] ec' b3/2c'/4b/4 [dfa] b | c'2 g[gc'] b/a/c'/b/ a[_Be=g] | %533
 !fermata![Bdg]4{!fermata!f!fermata!g!fermata!a} !fermata![df]2 g>a | b3 (3a/g/f/{a} g3 d | %535
 fe dc c<B z d | B<d ga b2 a>g | [dg]2 [dfa]2 z2 ga | b3 (3a/g/f/ g2 z [Gd]/g/ | fe dc{d} c<B z d | %540
 B<d gb d'<b a>b | !fermata!g2{agf} (3gab [ca] [Bg] ||[K:A][M:2/4][Q:1/4=80] [Ace]2 [Adf]2 | %543
 [Ace]>[Bd] [Ac]2 | [Ace]2 [Adf]2 | [Ace]>[Bd] [Ac]2 | [Ace]2 [Adf]2 | f2 ga | [eg]2 [^df]2 | %549
 [GBe]4 ||!p! [GB]>[Ac] [GB]>[Ac] | [Bd]>[ce] [Bd]2 | [Ac]>[Bd] [Ac]>[Bd] | [ce]>[df] [ce]2 | %554
 [da][eg][df][ce] | [Ba]fdB | [Ac]2{c} [GB]2 | A4 ||[K:D][M:2/4][Q:3/8=78] A | d>d df | %560
 [ce]d [ce]f | d>d [df][fa] | [gb]3 d' | [fa]>[df] [Af][Fd] | e>d [ce][cf] | [Bd]<B B>A | %566
 [Fd]2 z :| a |!f! [fa]>[df] [Ag]>[Fd] | [ce]>d [ce]>a | [fa]<[df] [df]>[fa] | b3 d' | %572
 [fa]>[df] [Af][Fd] | e>d [ce][cf] | [Bd]<B B>A | [Fd]2 z ||[K:D][M:2/4][Q:3/8=75] [df] | %577
 [fa]>[eg] [df][fa] | [eg]>[df] [ce][eg] | [df][Ad]B[Ge] | d2 c[df] | [fa]>[eg] [df][fa] | %582
 [eg]>[df] [ce][eg] | [df][Be][Fd][Gc] | [Gc]2 d :| [df] | [ce][Bd] !>!c2 | [eg]>[df] [ce][eg] | %588
 [df][df] [d^g][dg] | a2 z a | [fa]>[eg] [df][fa] | [eg]>[df] [ce][eg] | [df][Be][Fd][Gc] | z2 z || %594
[K:D][M:2/4][Q:1/4=60] A>A A>F | AB d2 | B>B B>A | Bcde |!f! f>f [ce][cf] | d>e !fermata!fe | %600
 [Bd]<B BA | A4 ::!f! f>f [df]>[Ae] | [df][eg] [fa]2 |!p! [ce]>[ce] [ce][Bd] | [ce]>[df] [eg]2 | %606
!f! [fa]>[df] [ce][cf] |!f! de !fermata!f>e |!p! [Bd]<B BA | A4 :| A>A A>F | AB d2 | B>B B>A | %613
 Bcde |!f! f>f [ce][cf] | d>e !fermata!fe | d<B BA | A4 || %618
[K:Bb][M:4/4][Q:1/4=65] [Bdg]4 [Bdg]2 [Bdg]2 | [Adf]6 b2 | [eb]2 [dg]2 [c^f]2 [Bg]2 | [^FAd]6 d2 | %622
!f! [Bdg]4 [Bdg]2 [Bdg]2 | [df]6 [fb]2 | a2 g2 ^f2 g2 | [^FAd]4 z4 || [db]4 [ca]2 [Bg]2 | %627
 [ca]6 [ca]2 | [Bg]2 [Bg]2 [A^f]2 [Bg]2 |!<(! d2 de f2 f2!<)! | B6 B2 |!f! c2 c2 d2 d2 | G6 z2 | %633
!pp! b4 a2 g2 | [^fa]6 a2 | g2 g2 ^f2 g2 |!<(! d2 de f2 f2!<)! | B6 B2 | c2 c2 d2 d2 | %639
 [Bdg]6 !fermata!z2 ||[K:A][M:4/4][Q:1/8=125] [Ac]>[Bd] | e2 a2 b2 e2 | %642
 !>![ac']3 [ac'] [gb]>[fa][eg]>[df] | e2 !>!a2 c2 e2 |{c} B>^AB>c [GB]>[GB][=Ac]>[Bd] | %645
 e2 a2 b2 e2 | [ac']3 [ac'] [gb]>[fa][eg]>[df] | (f>e)cA z"_ritard:" efg | [ca]2 [ec']2 [ca]2 :| %649
 e2 |!f! [GBe]2!p! (f/e/)^d/e/ [=db]2 e2 |!f! [Ace]2!p! (f/e/)^d/e/ [ac']2 ee' | %652
 [ae']d' d'c' c'b ba | [da]g gf fe [Ac]>[Bd] | e2 a2 b2 e2 | [ac']3 [ac'] [gb]>[fa][eg]>[df] | %656
 (f>e)cA z"_ritard:" efg | [ca]2 [ec']2 [ca]2 ||[K:C][M:3/4][Q:1/4=72] A>c [ce]2 [d^g]2 | %659
 b>c' a2 g2 | ee c2 [ce]2 | e>dB>c c2 :|!f! [ce]>[ce][ce]>[ce] [cg][ce] |!pp! dd dc/d/ e2 | %664
!f! [ce][ce]/[ce]/[ce][ce] [cg][ce] |!pp! dd dc/d/ e2 |!mf! e2 d2 c2 | [^GB]2 G2 A2 | %668
 a2"_dolce." ^gae3/2{d}[Ac]/ | e>dB>c A2 |!f! [ec']2 [d^g]a f2 | [Af]2 ^c>d A>B | c>d e3 [D^G] | %673
 A6 ||[M:3/4][Q:1/4=120] Gc | [ce]4 g z | c4 e z | G2 G>G G2 | cG ce g2 | [ce]4 g z | c4 e z | %681
 G2 GGGG | c4 || EC | z2 [B,FG]2 [B,FG]2 | cGce g2 | G2 GGGG | c2 e(g c') z | [ce]4 g z | c4 e z | %690
 G2 GGGG | c4 ||[K:A][M:2/4][Q:3/8=75]!p! AB cA | [Bd]2 [Ac]2 | [GB][FA][EG][FA] | [GB]2 E2 | %696
 ABcA | [Bd]2 [Ac]2 | BAB>c | c2 z2 ||!f! [ce]>[ce][Bd]>[Ac] | [df]4 | [ce]>[ce][Bd]>[Ac] |!f! B4 | %704
 [ce]>[ce][Bd]>[Ac] | [df]>[eg][fa]>[df] | [ce]>[Bd][Ac]>[GB] | A4 ||[K:D][M:2/4][Q:1/4=90] d/e/ | %709
 f/>d/c/>d/ A/>d/F/>A/ | G/>A/c/>e/ a/>^g/=g/>e/ | f/>d/c/>d/ B/>e/g/>f/ | %712
 e/>f/^d/>f/ e/>A/{c}B/>B/ | f/>d/c/>d/ A/>d/F/>A/ | G/>A/c/>e/ a/>^g/=g/>e/ | %715
 f/>a/g/>b/ a/>f/e/>c/ | d/>f/A/>f/ d :: d/e/ | e/>A/{c}B/>A/ g/>f/g/>e/ | f/d/b/a/ ^g/>a/f/>d/ | %720
 e/>A/{c}B/>A/ g/>f/g/>e/ | f/d'/a/f/ e f/a/ | b/"_dolce."(c/d/)b/ a/(c/d/)a/ | %723
 b/(c/d/)b/ a/(c/d/)a/ | B/e/f/g/ f/>a/c/>e/ | d/>f/A/>f/ d :|[K:A][M:2/4][Q:1/4=90] d/e/ | %727
 [Ac]e A>c | c B2{c} c/^A/ | [GB]d G>B | A !>!c2{d} c/A/ | [Ac]e Ac | c !>!B2{c} B/^A/ | %733
 [GB]d G>B | BA z :| A | Ac/e/ [ca][eg] | [eg] !>![df]2{g} [df]/[c^e]/ | [df][eg] [fa]>[df] | %739
 [df] !>![ce]2{f} [ce]/[Bd]/ | [Ac]e Ac | c !>!B2{c} c/^A/ | [GB]d G>B | BA z || %744
[K:D][M:2/4][Q:3/8=78] d/>e/ |!p! f2 ed | ee f/e/d/e/ | f2 [Ae][Fd] | f/e/d/c/ d :| [df]/>[eg]/ | %750
!f! aa ad'/>b/ | aa a [df]/[eg]/ | aa b/=c'/b/>a/ | g/f/e/d/ c/e/a/>g/ |!p! f2 ed | ee f/e/d/e/ | %756
 f2 [Ae][Fd] | f/e/d/c/ d ||[K:C][M:4/4] G2 | [Ec]2 [Ge]2 [Fc]2 [Ge]2 | f3 d B2 G2 | %761
 c2 !>!c'7/2 a/ f>d | c3 d B2 z G | [Ec]2 [Ge]2 [Fc]2 [Ge]2 | [Bd]3 [ce] [Bd]2 [Ad]2 | %765
 [Bd]3 [GB] A>Bc>A | G2 B>A G2 z G |!p! G2 AB c2 e2 | g3 [Ge] [Ac][Bd][ce][Ac] | A2 d2 f2 d2 | %770
 c3 d/c/ [DB]2 z G |!f! [Ec]2 [Ge]2 [Fc]2 [Ge]2 | f3 d B2 G2 |!p! c2 c'2-"_dolce." c'af>d | %774
 c2 e>d c2 ||[M:2/2] G2 G>G | [Ec]2 [Gc]2 de[Bf][Gd] | [cg]2 ec G2 GG | c2 [Ed][Ge] gfd>e | c4 :| %780
!p! a2 gg | g4 gfed | a2 g2!f! g2 [cg][Bg] | [cg]2{dcB} [Ed][Ge] gfdA | G2 z2 [ga]2 [^fa][fa] | %785
 [fd']2 f2 [ef]2 ff | [db]2 ee =d2 [Bd]2 | g2 [Ac]2 [=Bf]2 [ce]2 | !fermata!d4 G2 G>G | %789
 [Ec]2 [Gc]2 ce[Bf][Gd] | [cg]2 ec G2 GG | c2 [Ed][Ge] gfd>e | c4 ||[K:D][M:6/8][Q:3/8=78] [df] | %794
 [fa]2 [df] [fa]2 [df] | d3 A3 |!p! ddd e2 e | f6 | [df][df][df]{a} [eg][df][eg] | %799
 [fa]2 [df] [fa]2 [df] | [fa][fb][fa]{b} [fa][eg][df] | [ce]3 z2 z | [Ae][Ae][Ae] [Ae][df][eg] | %803
 [df]2 [eg] [fa]2 z | fed-!<(! [da][eg][df]!<)! |!f! e3 z2 [df] | [fa]2 [df] [fa]2 [df] | %807
 [eg]2 [fa] [gb]3 | aba e2 f | [Dd]3 D2 ||[K:C][M:4/4][Q:1/4=75] G2 | %811
!f! [EGd]2 [FAc]2 c/d/e/f/ g[Ac] | [cd]2 de/f/ [ce]2 z G | %813
 (c/d/)(c/d/) (e/f/)(e/f/) [dg][Gd][Ge]d | [Ac]d/e/ dc B2!<(! z2!<)! |!f! GGdB g^f/e/ d/c/B/A/ | %816
 G2 B>A G2 z2 |!p! c2 c>G [FA]G z [Ac] | [Adf]>[Ace] [Ad][Ac] [GB]2 z d | [ca]2 [df]2 e f [cg]c | %820
 c2 e>d c z z2 |!f! [ce]2 z [Ace] [Acf][Acf] z [Acf] | [Adf]>[Ace] d[Ac] [GB]2 z2 | %823
 [cg]2 f2 e/d/e/f/ g/a/b/c'/ | [ce]2 [Bd]2 [EGc]2 ||[M:6/8][Q:1/4=100]!p! G2 G G2 G | G2 G G2 G | %827
 c2 c{d} cBc | ^c3 d2 G | [FG]2 [FG] [EG]2 [EG] | [FG]2 [FG] [EG]2 [EG] | d2 d ded | c2 z GAB | %833
 c2 c cec | c2 c B2 B | d2 d ded | c3 GAB | c2 c cec | c2 B B2 c | d2 d ded | c3 cde |!f! f3 d3 | %842
 e3 c2 c | BAG GAB | c2 e c2 z |][K:G][M:2/4][Q:1/4=78] d | g2 f>e | [Bd]2 ef/>g/ | [GB][GB] cA | %849
 G2 z d | [Bg]2 [df][ce] | d^d ef/g/ | [GB][GB] [Ac][FA] | G2 z || d/c/ | BG Bd | %856
 [A^cg]2 [Ace]f/>g/ | [^A^cf][Bd] [Be]c | [Fd]2 [Ge][Af] | [dg]2 [df][ce] | [Bd]^d ef/g/ | %861
 [GB][GB] [Ac][FA] | G2 z d/c/ | BG Bd | [^cg]2 [ce]g | [^A^cf][Bd] [Be][Gc] | %866
 d2"_cresc." [^ce][A=cf] | g2 fe | [Bd]2 [ce]f/!fermata![_Beg]/ | [GB][GB]"^ritard:" [Ac]>A | %870
 G2 z ||[K:D][M:3/4][Q:1/4=78] f>g | f2 e z e>f | e2 d z de | d2 cAB>c | e2 d z f>g | f2 e z e>f | %877
 e2 d z d>e | d2 cAB>c | d2 z || Adf |!f! [ce]>[ce] [df][ce][df][B^g] | !>![ca]2 z [ce] [df][B^g] | %883
 [ca]2 z"_rit:" (f/e/) (^g/f/) (a/g/) | !fermata![ca]4 f>g | f2 e z e/"_dolce."{f}g/f/e/ | %886
 e2 d z d/{e}f/e/d/ | d2 cA B>c | e2 d z f>g | f2 e z e>f | e2 d z d>e | d2 cAd>c | d2 z2 || %893
[K:A][M:4/4] [ce]<[^B^d][=B=d]/ | c2 c>c c2 B2 | [DB]>[CA] A>A A>EA>c | %896
 [ce]2 A2 T[fa]3 [eg]/[df]/ | [ce]4- [ce][^B^d][=B=d][Ac] | B2 B>B B2 [^Ac]2 | [Bd]2 =f4 e>d | %900
 [Ac]>[ca][Bg]>[Af] [Ge]2 [F^d]2 | f2!f! [ege']2 z3/2 || e<ee/ | e>fg>a b3 c' | %904
 a2- (5:4:5a/.g/(b/.a/)f/ [ce]2 c'>(b | a>)gf>(^e f>)ga>b | c'2 c2 z3/2 e<^d=d/ | %907
 c2!<(! c>c [GB]2 c2!<)! |!f! d2 [df]2- [df]>[df][ce]>[Bd] | [Ac]>[ce][Bd]>[Ac] [AB]2 [Ge]2 | %910
 c2 A z3/2 z/ [Ge] [A^d]>[B=d] | c2 c>c [GB]2 c2 | d2 [df]2- [df]>[df][ce]>[Bd] | %913
 [Ac]>[ce][Bd]>[Ac] B2 e2 | A2!ff! [Acea]2 z2 z3/2 ||[K:C][M:2/4][Q:3/8=78]!p! [ce]2 [Ac][Ac] | %916
 [Ac]3 A | BB Bc | e>d [Ac] z | !>!a2 gg/a/ | !>!a2 gg/a/ | [ca][Ae][Bd][Ac] |!f! !>![Ac]2 B z || %923
!p! !>![GB]2 [GB][Bd] | [Bd]2 [Ac]>e | [Ge][GB] [GB][Bd] | !>![Bd]2 [^Gc]e | a !>!g2 f/e/ | %928
 a !>!g2 f/e/ | a2{g} fe/d/ | [Ac]2 [GB]2 | A2 z2 ||[K:A][M:2/4][Q:1/4=128] E | cA !>!A2 | %934
 c/A/A/A/ G<B | cB !>!A2 | B/c/B/A/ G<B ||!f! [ce]/[df]/[ce]/[Bd]/ !>!c2 | %938
 [ce]/[df]/[ce]/[Bd]/ c<e | [df]/[ce]/[Bd]/[Ac]/ !>![AB]2 | [AB]/c/B/A/ G<B || %941
[K:A][M:2/4][Q:1/4=120] A |!p! GB d>f | [ce] !>![Ac]2 [Ac] | e>d B>G | A c2 B/A/ | GB d>f | %947
 [ce] !>![Ac]2 [=Gc] | e>d B>G | BA z || [ce] |!f! [df]>[eg] [fa]>[df] | [ce] !>![Ac]2 [Ac] | %953
 e>d B>G | A !>!c2 B/A/ | GB df | [ce] [Ac]2 [Ac] | e>d B>G | BA z ||[K:D][M:4/4] G2 | %960
 d2 [Fd]2 [Fd]2 A2 | e2 [Ae]2 [Ae]2 A2 | f2 f2{a} g>fg>a | [ce]4 z2 [df]>[eg] | %964
 [fa]2 [fa]2 [fa]2 [fa]2 |{a} g2 g2{g} f2 [df]2 | [de]2 [de]2 e>d e>f | d2 f2 d2 || A2 | %969
!p! A2 A2 A2 B>c | [Ad]2 [ce]2 [df]2 a2 | [B^g]2 [c=g]2 [df]2 [B=f]2 | [ce]2 z2 z2 A2 | %973
 A2 A2 A2 B>c | [Ad]2!<(! [ce]2 [df]2 [ea]2!<)! |!f! d'2 f2{a} ^g2 f>g | a2 ^g2 =geBc | %977
 d2 d2 d2{BA^G} A2 | e2 [ce]2 e2"_dolce."{BA^G} A2 | [df]2 [df]2{a} g>f g>a | [ce]4 z2 [df]>[eg] | %981
 [fa]2 [fa]2 [fa]2 [fa]2 | g2 g2 f2 f2 | [de]2 [de]2 e3 a | [dg]4 f2 [df]>[eg] | %985
 [fa]2!<(! [fa]2 [fa]2 [fa]2!<)! | a2 ^g2 =g2 [=df]2 | e2 z2 [ca]2 z2 | [Dd]4 D2 || %989
[K:C][M:4/4][Q:1/4=75] G>c | e2 B2 c2 d2 | G2 A>B c2 d2 | e2 d>e f2 e2 |!f! [Bd]2 g2 z2 G>c | %994
 e2 [_AB]2 c2 d2 | G2 A>B c2 d2 | e2 (!>!a>g) d2 (!>!a>g) | [EGc]2!f! [gc']2 z2 ||"^dolce." A2 | %999
 [Ag]2 [G^c]2 [Ad]2 [_Be]2 | A2 [^GB][=G^c] d2 [fa]2 |!p! B2 c2 f2 e2 | [Gd]2!f! [GBg]2 z2 G>G | %1003
 e2 [_AB]2 c2 d2 | G2 A>B c2 d2 | e2 (!>!a>g) d2 (!>!a>g) | [EGc]2!f! [gc']2 z2 || %1007
[K:D][M:4/4][Q:1/4=78] A2 | f2 [Af]>[Ge] d2 d2 | [Ae]2 [Ae]2 [Af]2 d2 | %1010
 [fa]2{b} [fa]>[eg] [df]2 f>f | e>de>f d2 :| A2 |!f! [df]2 [df]>[eg] [fa]2 [fa]>[dg] | %1014
 [gb]2 [gb]>[eg] [fa]2 [df]2 | [df]2 [df]>[eg] [fa]2 [fa]>[df] | %1016
 [gb]!<(![bd'][ac'][gb]!<)!!f! !fermata![fa]2 z2 |!p! [Af]2 [^Gf]>[=Ge] [Fd]2 [Fd]2 | e2 e2 f2 d2 | %1019
 [fa]2{b} [fa]>[eg] [df]2 [Af]>[Af] |{f} e>d e>f d2 ||[K:D][M:4/4] A<AA/ | %1022
 [Fd]2 [Fd]2 [ce]2 [ce]2 | a3 f ddd>c | B2 [Eg]4 e>c | [Dd]4 z2 || d>e | %1027
!p! [df]2 [df]2 [df]2 [eg]>[df] | [df]>[ce] !>![ce]2 z2 [ce]>[df] | [eg]2 [eg]2 [eg]2 [fa]>[eg] | %1030
 [df]4 z2 a>a |!ff! a2 fd a2 fd | A4 z3/2 A<AA/ | [ce]4 [eg]2 ec | d2 d2 =c4 | B2 BB d2 =cd | %1036
 [ce]4 z2 [ce]2 | [d=f]3 [df] [ce][df][eg]>[df] | [ce]4 z2 [A=f]>[Ge] | d2 d2 d2 e>d | %1040
 dc c7/2 A/ A>A |!f! [Fd]2 [Fd]2 [ce]2 [ce]2 | a3 f ddd>c | B2 [Eg]4 e>c | [Dd]4 z2 || %1045
[K:A][M:2/4][Q:3/8=70] A[ce] [ce][df]/[Bg]/ | [ca]AA[ce] | [Ag][Ae][Gd][ce] | [GB]2 z2 :| aaaa | %1050
 [df][df][df] g/^a/ | bbba | g/a/f/g/ e a | aeed |{d} [Ac]/>[Bd]/[Ac]/>[Bd]/ [ce][ca] | %1055
 fb [cb][dg] | [ca]2 z2 ||[K:C][M:2/4][Q:1/4=70] G | ce/d/ ce | g>f d>e | %1060
 [Ge]/[_Bg]/[Af]/[Fd]/ d/c/c/=B/ | [Fd]2 c :| G | d3/2e/4d/4 dB | e>d ce | f>f e/d/e/f/ | %1066
 [ce]2 [Bd] z | ce/d/ ce | g>f d>f | [Ge]/[_Bg]/[Af]/[Fd]/ d/c/c/=B/ | [Fd]2 c || %1071
[K:D][M:6/8][Q:1/4=100] [eg][df] | [df]2 [df] [df]2 [eg] | [gb]2 [fa] [fa][eg][df] | %1074
 [ce][gb][fa] [eg][df][Ae] | d2 z z [eg]>[df] | [df]2 [df] [df]2 [eg] | %1077
 !>![gb]2 [fa] [fa][eg][df] | [ce][gb][fa] [eg][df][Ae] | d3 z || a>a | agf fba | ag z z [eg][eg] | %1083
 [eg][df][ce] [gb][fa][eg] | [eg]2 [df] daa | a^gg{a} gfg | a3 z [eg][df] | [df]2 [df] [df]2 [eg] | %1088
 [gb]2 [fa] [fa][eg][df] | [ce][gb][fa] [eg][cf][Ae] | d2 z z [eg]>[df] | [df]2 [df] [df]2 [eg] | %1092
 [gb]2 [fa] [fa][eg][df] | [ce][gb][fa] [eg][df][Ae] | d3 z |] %1095
[K:D][M:6/8][Q:1/4=77] [df]3{fg} [df][ce][df] | [fa]3 [df]2 z | d3 e2 e | [dg][fa][eg] [ce]2 z | %1099
 [df]3 [eg]{ag}[df][eg] | !>![^e^g]2 [fa] [df][=e=g][fa] | ([fa][eg])[eg] ([eg][df])[df] | %1102
 [ce]2 z z2 z | [ce]3 [ce]{=fe}[Bd][ce] | [ce]2 [d=f] [df]2 z | !>![=fa]3 [fa]{_ba}[eg][df] | %1106
 [=fa]2 [df] [ce]2 z | [ce]3 [ce]{=fe}[Bd][ce] | [ce]2 [d=f] [df]2 z |!<(! [d^g]3 [dg]2 [dg]!<)! | %1110
 !>![ca-]3 [ca]"_riterd:"[d^g][e=g] | [df]3{fg} [df][ce][df] | [fa]3 [df]3 | d3 e2 e | %1114
 ([df][fa])[eg] [ce]2 z | [df]3{ga} [eg][df][eg] | [eg]3 [eg]!>![gb][fa]/[eg]/ | %1117
 [df]!>![fa][eg]/[df]/ [ce]!>![eg][df]/[Ae]/ | d2 z!fine! || AAA | A>BA !>!g3 | [Af]3 AAA | %1122
 A>BA !>!g3 | f3!p! fff | f>gf fff | f>gf fff | f>gf fff | f3 ddd | ded !>!=c'3 | [db]3 ddd | %1130
 d>ed !>!=c'3 | b3 [gb][gb][fa] | [fa][eg][df] [df][ce][Bd] | [Ac]2 z [Aa][B^g][c=g] | %1134
{g} [df][ce][df] [fa][eg][df] | [ce]3 [Aa][B^g][c=g] |{g} [df][ce][df] [fa][eg][df] | %1137
 !fermata![ce]3 [ce]/"_ritard:"[df]/[eg]/[^e^g]/[fa]/[=e=g]/!D.C.! || %1138
V:2
 A2 G>A [DF]2 [DF]2 | [A,G]4 G2 z2 | [FA]2 [Ec]>[Dd] [Ce]2 [Dd]2 | c2 x2 c2 x2 || %4
 A2 G>A [DF]2 [DF]2 | [A,G]4 G2 z2 | [DF]4 [DA]2 [A,G]2 | [DF]2 z2 f2 x2 :| A,4 G,2 F,2 | %9
 E,4 e2 z2 | d2 d2- dcB^A | B,4 [ce]2 x2 ||[K:D][M:2/4] DA, B,C | [DF]2 [A,F]2 | [DF]2 [B,^D]2 | %15
 [E,E]2 [E,E]2 | E,4 | [EG]2 [^G,=F]2 | [A,F]2 [A,=G]2 | [DF]2 z2 || [B,F]2 [DF]2 | E2 E2 | %22
 [F^A]2 [FA]2 | [GB]2 [GB]2 | [DFB]2 [DFB]2 | E2 E,2 | [F,F]2 [F,E]2 | [B,D]2 z2 | A,2 c2 | D4 | %30
 A,2 A,2 | [DF]4 | ^A,2 F,2 | G,2 E,2 | F,7/2 F,/ | B,4 | A,3 A | [FA]D [G,GB]2 | [A,F]2 [A,Gc]2 | %39
 [DF]4 |][K:D][M:3/8] z | [DF]3 | [FA]2 z | z [FA]C | [DA][Ac] z | [Bd]2 [Ad] | [^Gd][=Gc][Fd] | %47
 [B,B][C_B][DA] | A,2 z | [DF]3 | [EG]2 z | z [FA][CA] | [DA][Ac] z | [Bd]2 [Ad] | [^Gd][=Gc][Fd] | %55
 z AA, | [DF] z || E | [B^d]2 A | GE z | A,2 G,/G/ | FD z | [df]dc | [df][^Af] [Bf]/>[Df]/ | ce d | %65
 [Fc]2 [^DB] | ced | A,B,C | [FA]3 | [EG]2 z | z [FA][CA] | [DA][Ac] z | z [B=d][Ad] | %73
 [^Gd][=Gc][Fd] | z AA, | [DF] z |][K:G][M:3/4] z2 | [G,G]4 [Gc]2 | [GB]2 GDB,D | G,2 [CE]2 [DF]2 | %80
 [G,B,]2 z2 :| z2 | G,B, DG [EGc]2 | [GB]2 G,2 z2 | [E,GB]3 [A,A] [B,G][B,A] | [E,G]3 z2 z | %86
 [G,G]4 [A,c]2 | [G,G]2 C2 B,D | G,2 [CE]2 [DF]2 | [G,B,]2 z2 |][K:C][M:2/4] C4 | E2 C2 | F2 C2 | %93
 E2 C2 | D2 B,2 | C2 A,2 | F,2 G,2 | C4 :| E2 G,2 | D2 G,2 | C2 G,2 | B,4 | C2 ^C2 | C2 A,2 | %104
 C2 ^F2 | G4 | [CE]4 | E2 C2 | F2 C2 | C4 | [GB]2 [^GB]2 | A2 E2 | F2 G2 | [CE]4 || z C E z | %115
 z E C z | z F C z | z E C z | D2 B,2 | C2 A,2 | F2 G2 | E2 C2 || z E C z | z D B, z | z C A, z | %125
 z B, G,2 | z E C z | z D B, z | z C G, z | z B, G, z ||[M:4/4] x2 | C2 A,2 ^G,2 E,2 | %132
 F,7/2 B,/ C2 !>!D2 | C2 D2 E2 E,2 | A,2 E2 A,2 E2 || C2 A,2 ^G,2 E,2 | F,7/2 B,/ C2 D2 | %137
 [CA]2 [DB]2 [EA]2 [E,^G]2 | A,2 E2 A,2 G,2 | E2 C2 B,2 G,2 | C2 A,2 ^G,2 E,2 | A,4 F,4 | %142
 E,4 z2 E2 | C2 A,2 ^G,2 E,2 | F,7/2 B,/ C2 D2 | [CA]2 [DB]2 [EA]2 [E,^G]2 | A,2 E2 A,2 || %147
[M:2/4] z | CE CE | CE C[EG] | G,[B,G] [G,G]B, | A,B, z2 | [CG]2 [B,^Gd]2 | [A,Ac]2 [F,F]2 | %154
 [EG]2 [G,F]2 | [CE][DF] C :| z | ^FD z A | GD G, z | DDDD | D2 D2 | DCB,A, | G,2 [CA]2 | %163
 [DG]2 [D^F]2 | G,=FED | [CEG][CEG]/[CEG]/ [CEG][CEG] | [CEG]2 z z | CC CC | [G,B,][G,B,DGB] z z | %169
 [CEG][CEG]/[CEG]/ [CEG][CEG] | [CEG]2 z [A,E] | [^F,DA]2 [D^F]2 | G2 z z | CE CE | CE C[EG] | %175
 G,[B,G] [G,G]B, | A,B, z2 | [CG]2 [B,^Gd]2 | [A,Ac]2 [F,F]2 | [EG]2 [G,F]2 | [CE][DF] C |] %181
[M:2/4] z | A,2 C2 | F2 D2 | E2 !>!F2 | ED CB, | A,2 C2 | F2 D^D | E2 z2 | A,2 z :| [G,F] | [CE]4 | %192
 C2 z2 | GG,/B,/ DG | E,2 z2 | A,2 C2 | F2 D^D | E2 E,2 | A,2 z |][K:A][M:3/4] z2 | A,6 | A,6 | %202
 E,2 [EG]2 E,2 | A,4 z2 | A,6 | A,6 | E,2 [EG]2 E,2 | [A,C]4 z :: z | E,4 E,2 | A,4 z2 | A,6 | %212
 A,4 z2 | A,6 | D6 | E,2 [EG]2 E,2 | [A,C]4 :|[K:C][M:6/8] z | A,3 E,^G,A, | D2 ^D E2 =D | %220
 C>B,A, D2 D | A,EC A,2 :| z | C2 c c2 c | [ce]2 F EC z | E>DE CDE | F2 ^F GG, z | [CE]3 [G,G]3 | %228
 [CG]2 F/D/ E2 D | C>B,A, D2 E | A,EC A,2 ||[K:A][M:2/4] z | A,2 E,2 | A,2 E,2 | DB, EE, | A,2 z :| %236
 z | E,2 E, z | A,2 A,2 | E,2 E, z | [A,c][Cc] D[EG] | A,C [DB][EG] | B,D/F/ FE, | A,2 z || %244
[K:G][M:4/4] G,4 G,2 G,2 | G,4 z2 G,2 | G4 G2 G2 | G4 E4 | A,4 D4 | G,4 G2 E2 | F4 [F,E]4 | %251
 [B,D]4 z4 || D4 D2 D2 | G,4 G,2 F,2 | [E,B]2 [A,A]2 B,2 B,2 | [EGB]4 [DF]4 | G,4 [CA]2 [EG]2 | %257
 G6 C2 | D4 D4 | [G,B,]4 z4 ||[K:G][M:4/4] z2 | E,6 [^Dc]2 | E3 ^D E2 ^C2 | D2 G2 F2 [A,E]2 | %264
 [DF]6 z2 | z2 [EG][FA] G2 ^D2 | E3 D E2 =D z | [Gg]2 c2 B2 D2 | G4 z2 z2 | z2 d2 [Bd]2 G2 | %270
 z2 G2 D4 | c2 [Bd]2 A2 G2 | D4 z2 z2 | [GB]2 [EB]2 [FB]2 [^DB]2 | %274
 [EB]F[GB]F !fermata![B,B^d]2 z2 | [EG]=D[CG]B, [A,F]2 [CF]2 | E2 B,G, E,2 ||[K:E][M:3/4] z2 | %278
 E,2 G,2 B,2 | E4 E,2 | A,4 B,2 | E2 E,2 B,2 || E,2 [G,E]2 [B,G]2 | [EG]4 (3(CC)B, | A,2 F,A, B,2 | %285
 E2 E,2 :| E2 | F2 B,2 F2 | E2 E,2 E2 | F2 B,2 F2 | E2 E,2 (3B,AD | E,2 [G,E]2 [B,G]2 | %292
 [EG]4 (3(CC)B, | A,2 F,A, B,2 | E2 E,2 ||[K:G][M:2/4] G[FA] [EG]2 | ^D[B,D] [E,E]B, | %297
 E,2 G[FA]/[EG]/ | ^DB, [EG] z :: E,F, G,F, | [G,G][B,^D] E, z | E,2 G[FA]/[EG]/ | ^DB, [EG] z :| %303
[K:C][M:4/4] [CE]2 G>F E2 [CE]2 | G2 x2 A2 B2 | c2 AG FA G>F | [CE]2 [EG]2 [CE]2 z2 | C2 z2 C4 | %308
 F2 ^C2 D2 z2 | z2 [G,F]2 [A,E]2 z2 | z2 [B,G]2 [CG]2 z2 | [EGc]2 [FAd]2 [Ac]2 [FB]2 | %312
 [CE]2 GE C2 z2 ||[M:3/4] B,G, | [CE]2 [CE]2 [CE][EG] | B,2 G,2 [CG][DG]/G,/ | E,2 F,2 [G,G][G,F] | %317
 [CE]4 :| [E^G]2 | [A,B][E^G] !>!F2 [D^F]2 | [=G,=G]D !>!E2 [CE][DF] | [EG]2 E2 [DA]>[EA] | %322
 [FA]^F G2 CD | EC [FA]D G[G,F] | [CE]4 ||[M:4/4] z2 | C4 C4 | F2 ^F2 G=F[EG][DG] | C4 C4 | %329
 F2 [EG]D [CE]2 || B_B | A2 AG F2 [CG]2 | [EG]2 F[^FA] [GB]2 z2 | C4 C4 | F2 [EG]D [CE]2 || %335
[M:2/4] z | A,2 A,F | D[E^G] A, z | [CE]2 C2 | GG, C z | A,2 [E,^GB]2 | [A,A][E^G] F2 | %342
 DB, [E^G]E, | [A,A][E,^G] A, :: z | E,2 A,2 | E,2 A, z | G,2 C2 | G,2 [CG] z | A,2 [E,^GB]2 | %350
 A,E, F,2 | D2 [E^G]E, | A,E, A, :|[M:2/4] [CE][CE][CE][CE] | [CE][CE][CE][CE] | [CE][CE][CE][CE] | %356
 !3!!1![DF][DF][DF][DF] | [DF][DF][DF][DF] | [DF][DF][DF][D^F] | G,4 | G,2 [CE] z || B,2 G,2 | %362
 G,2 B,2 | C2 [CE]2 | B,2 G,2 | B,2 G,2 | G,2 B,2 | C2 C2 | G,[G,G][A,A][B,G] | [CE][CE][CE][CE] | %370
 [CE][CE][CE][CE] | [DF][DF][DF][DF] | [DF][DF][DF][DF] | [DF][DF][DF][DF] | [DF][DF][DF][D^F] | %375
 G,4 | G,2 [CE] z ||[M:2/4] C3 G, | C2 G,2 | [A,A]2 [F,A]G, | [CE]G,E,G, | [CE]2 [CE]G, | C2 G,2 | %383
 A,2 [Fc][GB] | CGFE | [DF]2 [DF]2 | [^CG]A,CA, | [DF]2 [D^F]2 | G,FED | [CE]2 [CE][G,G] | %390
 [CG]2 [^G,F]2 | [A,A]2 [F,F][G,G] | EG FE ||[M:4/4] z2 | C4 C4 | C4 C2 z2 | F2 E2 D2 C2 | %397
 G,4 G,2 z2 | C2 [E,E]G, C2 B,2 | [A,^F]2 [G,G]2 DCB,A, | G,2 z2 D2 D2 | [G,B,]2 DB, G,2 || z2 | %403
 G2 G2 G2 G2 | G2 G2 [CE]2 CE | G2 G2 E2 C2 | G^F G2 z2 z2 | [CEG]4 [CG]2 [E,G]2 | [F,F]2 F2 D3 F | %409
 G4 [G,F]4 | [A,E]4 [G,F]4 | [CG]2 z2 z2 [G,F]2 | [CEG]4 z2 ||[M:4/4] z2 | C4 C4 | B,4 G,4 | %416
 [CG]2 [B,G]2 [CG]2 [DG]2 | C4 G,2 A,2 | D4 D2 D2 | [G,G]2 [A,G]2 [B,G]2 [CG]2 | D4 [D^F]4 | %421
 [G,B,]4 z4 || [CE]4 [DG]2 [EGc]2 | G4 [CG]4 | [G,G]2 C2 E,2 F,2 | [G,D]4 [G,B,]3 z | %426
 C2 D2 E2 B,2 | [CE]6 [CG]2 | [CG]2 [B,G]2 [CG]2 [DG]2 | C4 G,2 C2 | [DG]2 [CG]2 [B,G]2 [A,G]2 | %431
 G,2 F,2 E,2 F,2 | [G,G]4 [G,FB]4 | [CE]8 ||[K:A][M:2/4] z | [A,C] z A, z | A, z2 x | A,4 | A,4 | %439
 [B,G] z [EG] z | A, z F z | D z E z | [A,C]2 z || z | A2 E2 | [DB]2 [DG]2 | [CE]2 A,2 | [EG]4 | %448
 z2 E,2 | E,4 | E2 [E,DG]2 | [A,C]2 z ||[K:A][M:2/4] A,2 CE | A z [CE] z | [DF] z E z | [A,C]2 z2 | %456
 A,3 z | A z F z | D z [EG] z | A,2 z2 :: A,2 [A,A]2 | E,3 z | E2 [E,G]2 | A,3 z | z A, CE | %465
 A, z [CE] z | [DF] z E z | [A,C]2 z2 :|[K:C][M:3/8] D3 | A,3 | DCA, | D2 [Bd] | GAA, | D2 z :| %474
 A,2 [Ac] | DB[E^G] | [A,A]2 z | A,3 | DB,E, | !fermata!A, B,C | D2 [Bd] | GAA, | GCA, | D2 ^D | %484
 EGA | D2 z ||[K:D][M:2/4] z | [DA]2 [DA]2 | [CA]2 [CA]2 | [DA]2 [DA]2 | AG FE | [DA]2 D2 | %492
 [Bd]2 !fermata![Gd] z | F>G A>G | [DF]2 z || z | D2 D2 | [DB]2 D2 | D2 D2 | AG FE | D2 D2 | %501
 [GB]2 [GB]2 | D>G A[A,G] | [DF]2 z ||[K:C][M:4/4] C4 E4 | G6 C2 | [FB]4 [GB]4 | C4 z4 | C4 E,4 | %509
 G,6 C2 | F,4 G,4 | [CE]4 z4 || [GB]4 [E^G]4 | A,4 [D^F]4 | G,4 [D^F]4 | [G,B,]6 z2 | [CG]4 E,4 | %517
 G,6 C2 | F,4 G,4 | C4 z4 ||[K:G][M:4/4] z2 | [GB]2 [Ac]2 [Bd]2 [GB]2 | [CG]2 [DF]2 G3 G, | %523
 G3 [Fd] [Gd]2 [E^c]2 | z2 D2 [df][ce][Bd][Ac] | [GB]2 [Dc]2 E2 [B,G]2 | [CG]2 [DF]2 [EG]2 [DF]2 | %527
 G2 [GB]2 [DB]2 [Dc]2 | !fermata![GB]2 z2 D G || z2 | D4 D2 [^Df]2 | E2 [Cc][A,e] [Ddg]2 D z | %532
 z e_ed [A,c=e]3 ^C | D4 [DA]2 z2 | [GB]2 [Ac]2 [Bd]2 [GB]2 | [CG]2 [DF]2 G3 G, | %536
 G3 [Fd] [Gd]2 [E^c]2 | z2 D2 [df][ce][Bd][Ac] | [GB]2 [Dc]2 E2 [B,G]2 | [CG]2 [DF]2 [EG]2 [DF]2 | %540
 G2 [GB]2 [DB]2 [Dc]2 | !fermata![GB]2 z2 D G ||[K:A][M:2/4] A,2 !>!A,2 | A,4 | A,2 !>!A,2 | A,4 | %546
 A,2 A,2 | [F,Ac]4 | B2 A2 | E,4 || E,4 | E,4 | A,4 | A,2 z2 | A,4 | D2 [DF]2 | E2 [E,D]2 | %557
 [A,C]4 ||[K:D][M:2/4] z | [DF]2 [DF]2 | [A,G]2 [A,G]2 | [DF]2 D2 | G2 G2 | D2 D2 | %564
 [A,Gc]3 [^A,G] | [B,F]2 [G,EG]2 | D2 z :| z | D2 D2 | [A,G]2 [A,A]2 | D2 D2 | G2 G2 | D2 D2 | %573
 [A,Gc]3 [^A,G] | [B,F]2 [G,DG]2 | D2 z ||[K:D][M:2/4] z | D2 D2 | A,2 A,2 | DFGE | A,2 [A,E] z | %581
 D2 D2 | A,2 A,2 | DG,A,A, | DA, [DF] :| z | A,2 AA | A,2 A,2 | DC EE, | [Ac]A, A/G/F/E/ | D2 D2 | %591
 A,2 A,2 | DG,A,A, | DA, [DF] ||[K:D][M:2/4] [DF]2 [DF]2 | [DF]2 [DFA]2 | [DG]2 [DG]2 | %597
 [DG][DG][DF][CA] | [DAd]2 A,^A, | [B,B]2 [FA] z | G<G GF | [DF]4 :: [Dd]2 D2 | D2 D2 | A,2 A,2 | %605
 A,2 A,2 | D2 A,^A, | [CB]2 [F^A]2 | G<G GF | [DF]4 :| [DF]2 [DF]2 | [DF]2 [DFA]2 | [DG]2 [DG]2 | %613
 [DG][DG] [DF][CA] | [DAd]2 A,^A, | [B,B]2 [FA] z | G<G GF | [DF]4 ||[K:Bb][M:4/4] G4 G2 G2 | %619
 D6 [df]2 | c2 B2 A2 G2 | D6 z2 | G,4 G,2 G,2 | [DA]6 d2 | [ce]2 [Bd]2 [Ac]2 [GB]2 | D4 z4 || %626
 D4 D4 | D6 D2 | D4 D4 | [D^FA]4 [D=FA]4 | [B,DF]6 B,2 | C2 C2 D2 D2 | G,6 z2 | [GBd]4 [GBe]4 | %634
 [^FA]4 [=FAd]4 | [=EGd]4 [_EG^c]4 | [D^FA]4 [C=FA]4 | [B,DF]4 [DF]4 | [EG]4 [D^F]4 | G,6 z2 || %640
[K:A][M:4/4] z2 | [A,c]4 [E,d]4 | A,4 D4 | [A,c]4 [A,A]4 | [E,G]2 z2 E,2 z2 | [A,c]4 [E,d]4 | %646
 A,4 D4 | E,2 z2 E,4 | A,2 A,2 A,2 :| z2 | [F,B,E]2 z2 E,2 z2 | [A,E]2 z2 A,2 z2 | %652
 !>!f2 !>![eg]2 !>![df]2 !>![ce]2 | !>!B2 !>![Ac]2 !>![GB]2 z2 | [A,c]4 [E,d]4 | A,4 D4 | %656
 E,2 z2 E,4 | A,2 A,2 A,2 ||[K:C][M:3/4] A,2 C2 E2 | [^Gd]2 [Ac]2 [Bd]2 | cc AECA, | E2 E,2 A,2 :| %662
 [CG]4 EC | GG GE/G/ c2 | [CG]4 EC | GG GE/G/ c2 | [CG]2 [B,^G]2 [A,A]2 | !>!D2 A,2 [A,C]2 | %668
 [A,c]4 C2 | E2 E,2 A,2 | A2 B2 cA | D2 E2 F2 | [EA]4 E,2 | [A,C]6 ||[M:3/4] z2 | C4 z2 | %676
 [CE]4 z2 | [G,F]4 z2 | [CE]4 z2 | C4 z2 | [CE]4 z2 | [G,F]6 | [CE]4 || z2 | G,6 | [CE]4 z2 | %686
 [G,F]6 | [CE]4 z2 | C4 z2 | [CE]4 z2 | [G,F]6 | [CE]4 ||[K:A][M:2/4] C2 A,2 | G,2 A,2 | F,4 | %695
 E,2 z2 | A,E A,C | G,2 A,2 | [DF]2 [DE]2 | A,2 z2 || A,4 | G,4 | A,2 D>^D | [EG]4 | A,4 | D4 | %706
 E,4 | A,4 ||[K:D][M:2/4] z | D4 | A,3 C | D2 G,2 | A,2 z2 | D4 | A,3 C | DB/G/ A[A,G] | %716
 [DF]2 [DF] :: z | C2 A,2 | D2 A,2 | C2 A,2 | D2 A, z | D2 D2 | D2 D2 | G[EB] [Ad][A,G] | %725
 [DF]2- [DF] :|[K:A][M:2/4] z | A,2 CA, | [DF]2 [DF]2 | E2 E,2 | A,2 A,2 | A,2 F2 | [DF]2 [DF]2 | %733
 E2 E,2 | [A,C]2 z :| z | A,2 A,2 | A,2 A,2 | A,2 A,2 | A,2 z2 | A,2 F2 | [DF]2 [DF]2 | E2 E,2 | %743
 [A,C]2 z ||[K:D][M:2/4] z | D2 AF | [CA]2 [A,A]2 | D4 | [GB]A/[A,G]/ [DF] :| z | D2 D2 | D2 D z | %752
 [df][=ce] [B^d][Bd] | [EB][G_B] AA, | D2 AF | [CA]2 [A,A]2 | D4 | [GB]A/[A,G]/ [DF] || %758
[K:C][M:4/4] z2 | C4 C4 | [G,GB]6 z2 | [EG]4 [FA]2 [F,A]2 | [G,E]4 [G,D]2 z2 | C4 C4 | G,6 ^F,2 | %765
 G,3 E C2 A,2 | D2 [D^F]2 [B,D]2 z2 | F4 [EG]2 [CG]2 | [CG]2 C2 A,4 | F4 [F,A]4 | [G,E]4 G,2 z2 | %771
 C4 C4 | [G,GB]6 z2 | [EG]4 [FA]2 [F,A]2 | [A,E]2 [G,F]2 [CE]2 ||[M:2/2] [B,F]2 [G,F]2 | %776
 C2 E2 [B,G]2 G,2 | EGCG [DF]2 [B,F][G,F] | C4 [DGB]2 [G,FB]2 | [CE]4 :| [FB]G[Ac][Bd] | %781
 [ce]4 [GB]2 [GB]2 | [ce]G[ce]G [F,GB]G,A,B, | C2 x2 [D^F]2 [DF]2 | G,2 z2 ^c2 d=c | %785
 B2 c2 d2 [Bd][Ad] | ^G2 [A^c][=Gc] [Fc]2 G=F | [E_B]2 F2 DG,C^F | !fermata![GB]4 [B,F]2 [G,F]2 | %789
 C2 E2 [B,G]2 G,2 | EGCG [DF]2 [B,F][G,F] | C4 [DGB]2 [G,FB]2 | [CE]4 ||[K:D][M:6/8] z | D3 D3 | %795
 [DF]3 [DF]3 | FFF A2 A | d6 | D3 A,3 | D3 D2 D | D6 | AEC A,2 z | A,6 | D3 D3 | dAF- FG^G | %805
 [Ac]3 z2 z | D3 D3 | G3 G3 | [Af]3 [A,G]3 | FAF D2 ||[K:C][M:4/4] z2 | C2 C2 [CEG]2 [E,Gc][A,E] | %812
 FD [B,G]G, [CG] CGF | [EG][EG] [CG][Gc] B,B,C[E^G] | A,2 [D^F]2 [G,G]A,/B,/ C/D/E/F/ | %815
 G,2 ^F,2 E,2 z C | D2 [D^F]2 [G,B,]G/A/ G/=F/E/D/ | [CEG]2 [CEG]E, F,2 z E | %818
 DE F^F z/ G,/B,/D/ G/A/=F/G/ | [EG]/D/E/C/ [B,G]/A,/B,/G,/ CD [EG][FA] | %820
 [G,E]2 [G,FB]2 [CE]B/A/ G/F/E/D/ | [CG]2 z A, F,F, z F | DE [FA]^F z/ G,/A,/B,/ C/D/E/=F/ | %823
 [EG]D/C/ [DGB]G, [CGc]2 [E,Gc]2 | [G,G]2 [G,F]2 C2 ||[M:6/8] [CE]2 [CE] [CE]2 [CE] | %826
 [CE]2 [CE] [CE]2 [CE] | CEG CEG | B,FG B,FG | B,2 B, C2 C | B,2 B, C2 C | CEG CEG | [CE]2 z z2 z | %833
 CEG CEG | DFG DFG | B,FG B,FG | B,EG [G,F]3 | B,EG CEG | DFG DFG | B,FG B,FG | CEG EDC | %841
 B,DG B,DG | CEG CEG | [G,F]3 [G,F]3 | [CE]2 [CG] [CE]2 z |][K:G][M:2/4] z | [G,B]2 [A,c]2 | %847
 B,2 [CG]2 | D2 [DF]2 | [G,B,]2 z2 | G,B, C/D/E/F/ | [GB]2 [Cc]2 | DE CD | [G,B,]2 z || z | %855
 G,3 [FA] | E2 A,2 | F,B, G,A, | D2 ^C=C | B,2 C/D/E/F/ | G2 C2 | DE CD | [G,B,]2 z2 | %863
 [G,D]3 [F,DA] | [E,E]2 [A,A]2 | F,B, G,=A, | [DF]2 [DG]^D | [EGB]3 [FAc] | G=F [EG]>!fermata!^C | %869
 D=F E/C/A,/[D^F]/ | [G,B,]2 z ||[K:D][M:3/4] z2 | [A,G]4 [CG]2 | [DF]4 [DF]2 | [A,G]2 z2 [A,G]2 | %875
 [DF]4 z2 | [A,G]4 [CG]2 | [DF]4 [D^G]2 | [EG]2 z2 [A,G]2 | [DF]2 z || z z2 | A,2 z2 z E, | %882
 A,C E z z E, | A,C E z z [E,B] | !fermata!A,4 z2 | [A,G]4 [EG]2 | [DF]4 [E^G]2 | %887
 [A,G]2 z2 [A,G]2 | [DF]4 z2 | [A,G]4 [^A,G]2 | [B,F]4 [^G,E]2 | [A,G]2 z2 [A,B]2 | [DF]2 z2 || %893
[K:A][M:4/4] E<FG/ | A2 [A,E]2 [A,E]2 z2 | A,2 [B,D]2 [B,D]2 z2 | A2 [A,C]2 D3 z | %897
 A,>G,A,>G, A,2 z2 | G2 [EG]2 [DG]2 C2 | B,2 [A,=c]2 [G,B]2 [E,GB]2 | A,4 B,2 B,2 | %901
 [EG]2 E,2 z3/2 || z/ z2 | [Gd]2 [E,e]2 G2 E,2 | [Ac]2 A,2 A2 c>(B | A>)GF>(^E F>)GA>B | %906
 c2 C2 z3/2 [EG]<[FA][GB]/ | A2 [A,EA]2 [A,E]2 [A,E=G]2 | [DFA]2 D>C B,2 C>D | E>A,B,>C D2 E2 | %910
 A2 [A,C] z3/2 z/ E, F,>G, | [A,A]2 [A,EA]2 [A,E]2 [A,E=G]2 | [DF]2 D>C B,2 C>D | %913
 E>A,B,>C [DA]2 [EG]E, | [A,C]2 A,2 z2 z3/2 ||[K:C][M:2/4] A,4 | A,ECF | [DF]2 [EG]A, | G,E, A, z | %919
 A,2 A,2 | A,2 A,2 | A,CD^D | E,2 [EG] z || EB, G,E, | z G, CA, | E,3 G, | z E A, z | E,4 | E,4 | %929
 E,2 D2 | E2 [E,D]2 | [A,C]2 z2 ||[K:A][M:2/4] z | A,2 C2 | C2 E,2 | A,2 F2 | D^D E2 || A,2 A2 | %938
 A,2 A2 | D2 D2 | ^E2 E2 ||[K:A][M:2/4] z | E2 E,2 | A,2 A,2 | [EG]2 E,2 | A,2 A,2 | E2 [E,G]2 | %947
 x4 | [DF]2 E2 | [A,C]2 z || z | A,2 A,2 | A,2 A,2 | [EG]2 E,2 | A,2 A,2 | E2 [E,G]2 | A,2 F2 | %957
 [EG]2 E2 | [A,C]2 z ||[K:D][M:4/4] z2 | z2 D2 D2 z2 | z2 C2 C2 z2 | [Dd]2 [B,d]2 [G,e]2 [E,e]2 | %963
 A2 E2 A,2 z2 | z2 DE F2 D2 | [Bd]2 [ce]2 d2 B2 | G2 E2 [Ac]2 [A,Gc]2 | [DF]2 [DA]2 [DF]2 || A2 | %969
 A,2 [CE]2 G,2 G2 | F2 E2 D2 z2 | E2 !>!A,2 D2 !>!^G,2 | A,2 A,/^G,/A,/G,/ A,2 z2 | %973
 [A,C]4 [G,E]2 G2 | F2 E2 D2 C2 | [B,df]4 [E,d]4 | [A,c]2 z2 z4 | z2 [DF]2 [DF]2 z2 | %978
 z2 A2 A,2 z2 | D2 B,2 G,2 E,2 | A2 E2 A,2 z2 | z2 DE F2 D2 | [G,e]2 !>![Ce]2 [Dd]2 !>![B,d]2 | %983
 G,2 G2 [Ac]2 A,2 | A2 A,2 [Dd]2 z2 | z2 d2 c2 =c2 | [B^d]2 e2 [^Ac]2 B2 | [Gd]2 z2 [A,G]2 z2 | %988
 F2 AF D2 ||[K:C][M:4/4] x2 | [CG]2 [F_A]2 [EG]2 [D^F]2 | G,2 F2 [EG]2 [B,G]2 | %992
 [CG]4 [B,G]2 [CG]2 | G2 [G,GB]2 z2 z2 | [CG]2 !>!F2 [EG]2 !>![D^F]2 | [G,F]4 [EG]2 [FA]2 | %996
 [Gc]4 [G,B]4 | C2 [ce]2 z2 || z2 | D2 E2 GF, !>!G,2 | A,4 [FA]2 [Dd]2 | [FG]2 [EG]2 [DG]2 [CG]2 | %1002
 B,2 G,2 z2 x2 | [CG]2 !>!F2 [EG]2 !>![D^F]2 | [G,F]4 [EG]2 [FA]2 | [Gc]4 [G,B]4 | C2 [ce]2 z2 || %1007
[K:D][M:4/4] z2 | D4 [DF]4 | C2 A,2 D2 z2 | D4 D4 | [A,G]4 [DF]2 :| z2 | D4 D4 | D4 D2 z2 | D4 D4 | %1016
 D4 D2 z2 | D4 D4 | [CA]2 [A,A]2 [DA]2 z2 | D4 D4 | [A,G]2 [A,G]2 [DF]2 ||[K:D][M:4/4] z/ z2 | %1022
 D4 A,4 | DFGd D2 F2 | G2 B2 A2 [A,G]2 | FAFA D2 || F>A | D4 D2 z2 | A,4 A2 z2 | A,4 A,4 | %1030
 D4 z2 z2 | B2 FD A2 FD | A,4 z4 | A,CEC A,CEG | FAFD FAFD | GDGD FD=CB, | A,CEA A,2 z2 | %1037
 DA=FD A,2 A,2 | z AEC A,2 z2 | [_B,=F]4 [B,^G]4 | [A,A]4 A,3/2 z/ z2 | D4 A,4 | DFAd D2 F2 | %1043
 G2 B2 A2 [A,G]2 | FAFA D2 ||[K:A][M:2/4] A,2 A,2 | A,3 C | DCB,A, | E2 z2 :| [Ac][Bd][ce][Ac] | %1050
 DFD z | [B^d][ce][df][df] | [E,e][B,^d] [EG] z | [A,c]2 [EG]2 | A,2 z F | [Dd]2 EE, | A,2 z2 || %1057
[K:C][M:2/4] z | E/G/C/G/ E/G/C/G/ | B,/G/D/G/ B,/G/D/G/ | CF, [G,E][G,D] | z/ G,/A,/B,/ [CE] :| %1062
 z | G,/B,/D/G/ G,/D/B,/D/ | C/G/E/G/ E/G/C/G/ | B,/G/D/G/ C/G/E/G/ | G,/E/F/^F/ G/=F/E/D/ | %1067
 C/G/E/G/ E/G/C/G/ | B,/G/D/G/ B,/G/D/G/ | CF, [G,E][G,D] | z/ G,/A,/B,/ [CE] ||[K:D][M:6/8] z2 | %1072
 D3 D3 | D3 D3 | A,3 A,3 | DFA D z2 | D3 D3 | D3 D3 | A,3 A,3 | DFA D || z2 | [B,^d]3 [B,d]3 | %1082
 [Ee]2 z E2 z | A,3 A,3 | D3 D z2 | [E,d]3 [E,d]3 | [A,c]3 z z2 | D3 D3 | D3 D3 | A,3 A,3 | %1090
 DFA D z2 | D3 D3 | D3 D3 | A,3 A,3 | DFA D |][K:D][M:6/8] D3 D3 | D3 z2 z | F3 A2 A | D2 G A2 z | %1099
 D3 D3 | D3 D3 | A,3 D3 | AEC A,2 z | A,3 A,3 | A,3 A,2 z | A,3 A,3 | A,3 A,2 z | A,3 A,3 | %1108
 A,3 A,2 z | _B,DE =FDB, | A,3- A,2 z | D3 D3 | D3 D3 | F3 A2 A | D2 G A2 z | D3 D3 | E3 E3 | %1117
 A,3 A,3 | [DF]2 z || [DF]3 | [CG]3 C3 | D3 [DF]3 | [CG]3 C3 | [DA]3 [Bd]3 | [^Ac]3 [Ac]3 | %1125
 [Bd]3 [Bd]3 | [^Ac]3 [Ac]3 | [Bd]3 [GB]3 | [F=c]3 F3 | G3 [GB]3 | [F=c]3 F3 | [Gd]3 G3 | G3 ^G,3 | %1133
 A,2 z A,3 | A,3 A,3 | A,3 A,3 | A,3 A,3 | !fermata!A,3 z2 z || %1138
V:3
 D4 x4 | x8 | x8 | A,4 A,2 x2 || D4 x4 | x8 | x8 | x4 D2 z2 :| x8 | x4 G2 z2 | F,2 F,2 F,2 F,2 | %11
 x4 A,3 z ||[K:D][M:2/4] x4 | x4 | x4 | x4 | x B,CD | x4 | x4 | x4 || x4 | z [GB] z [GB] | x4 | %23
 x4 | x4 | GB G2 | x4 | x4 | GA G>A | FA FA | GA [Gc]A | x4 | c2 ^A2 | x4 | x4 | x4 | x4 | x4 | %38
 x4 | x4 |][K:D][M:3/8] x | x3 | x3 | x3 | x3 | x3 | x3 | x3 | x3 | x3 | x3 | x3 | x3 | x3 | x3 | %55
 x3 | x2 || x | x3 | x3 | x3 | x3 | x3 | x3 | E2 ^E | x3 | E2 E, | x3 | x3 | x3 | x3 | x3 | x3 | %73
 x3 | x3 | x2 |][K:G][M:3/4] x2 | x6 | x6 | GE x4 | x4 :| x2 | x6 | x6 | x6 | x6 | x6 | x2 GD z2 | %88
 GE x4 | x4 |][K:C][M:2/4] x4 | x4 | x4 | x4 | x4 | x4 | x4 | x4 :| x4 | x4 | x4 | x4 | x4 | x4 | %104
 x4 | x4 | x4 | x4 | x4 | x4 | x4 | x4 | x4 | x4 || x4 | x4 | x4 | x4 | x4 | x4 | x4 | x4 || x4 | %123
 x4 | x4 | x4 | x4 | x4 | x4 | x4 ||[M:4/4] x2 | x8 | x8 | x8 | x8 || x8 | x8 | x8 | x8 | x8 | x8 | %141
 x8 | x8 | x8 | x8 | x8 | x6 ||[M:2/4] x | x4 | x4 | x4 | x4 | x4 | x4 | x4 | x3 :| x | x4 | x4 | %159
 x4 | BB x G | x4 | x4 | x4 | x4 | x4 | x4 | x4 | x4 | x4 | x4 | x4 | x4 | x4 | x4 | x4 | x4 | x4 | %178
 x4 | x4 | x3 |][M:2/4] x | x4 | x4 | x4 | x4 | x4 | x4 | x4 | x3 :| x | x4 | x4 | x4 | x4 | x4 | %196
 x4 | x4 | x3 |][K:A][M:3/4] x2 | x6 | x6 | x6 | x6 | x6 | x6 | x6 | x5 :: x | x6 | x6 | x6 | x6 | %213
 x6 | x2 dcBA | x6 | x4 :|[K:C][M:6/8] x | x6 | x6 | x6 | x5 :| x | x6 | x6 | x6 | x6 | x6 | x6 | %229
 x6 | x5 ||[K:A][M:2/4] x | c2 d2 | c2 d2 | x4 | x3 :| x | g2 ge | c2 a2 | g2 g z | x4 | x4 | x4 | %243
 x3 ||[K:G][M:4/4] x8 | x8 | x8 | x8 | x8 | x8 | x8 | x8 || x8 | x8 | x2 c2 x4 | x8 | x8 | x8 | %258
 x8 | x8 ||[K:G][M:4/4] x2 | x2 [GB][FA] [EG]2 x2 | x8 | d2 x6 | x8 | x8 | x8 | x8 | x8 | x8 | x8 | %271
 x8 | x8 | x8 | x8 | x8 | x6 ||[K:E][M:3/4] x2 | x6 | x6 | x6 | x6 || x6 | x6 | x6 | x4 :| x2 | %287
 x6 | x6 | x6 | x6 | x6 | x6 | x6 | x4 ||[K:G][M:2/4] x4 | x4 | x4 | x4 :: x4 | x4 | x4 | x4 :| %303
[K:C][M:4/4] x8 | C4 x2 F,2 | E,2 F,2 G, z G,2 | x8 | x8 | x8 | x8 | x8 | x8 | x8 ||[M:3/4] x2 | %314
 x6 | x6 | x6 | x4 :| x2 | x6 | x6 | x6 | x6 | x6 | x4 ||[M:4/4] x2 | G2 x6 | x8 | G2 x6 | x6 || %330
 x2 | x8 | x8 | z GFG x4 | x6 ||[M:2/4] x | x4 | x4 | x2 G^F | x4 | x4 | x4 | x4 | x3 :: x | x4 | %346
 x4 | x4 | x4 | x4 | x4 | x4 | x3 :|[M:2/4] x4 | x4 | x4 | x4 | x4 | x4 | z [FG]FF | G,[FG] x2 || %361
 FG G,G | FG FG | EG x2 | FG G,G | FG G,G | FG FG | _EG x2 | z x3 | x4 | x4 | x4 | x4 | x4 | x4 | %375
 z [FG]FF | G,[FG] x2 ||[M:2/4] x4 | x4 | x4 | x4 | x4 | x4 | x4 | x4 | x4 | x4 | x4 | x4 | x4 | %390
 x4 | x4 | x4 ||[M:4/4] x2 | x8 | x8 | x8 | x8 | x8 | x8 | x8 | x6 || x2 | x8 | x8 | x8 | x8 | x8 | %408
 x8 | x8 | x8 | x8 | x6 ||[M:4/4] x2 | x8 | x8 | x8 | x8 | x8 | x8 | x8 | x8 || x8 | x8 | x8 | x8 | %426
 x8 | x8 | x8 | x8 | x8 | x8 | x8 | x8 ||[K:A][M:2/4] x | x4 | x4 | f2 x2 | x4 | x4 | x4 | x4 | %442
 x3 || x | x4 | x4 | x4 | x4 | x4 | x4 | x4 | x3 ||[K:A][M:2/4] x4 | x4 | x4 | x4 | c3 x | x4 | %458
 x4 | x4 :: x4 | x4 | x4 | x4 | x4 | x4 | x4 | x4 :|[K:C][M:3/8] x3 | x3 | x3 | x3 | x3 | x3 :| %474
 x3 | x3 | x3 | x3 | x3 | x3 | x3 | x3 | x3 | x3 | x3 | x3 ||[K:D][M:2/4] x | x4 | x4 | x4 | x4 | %491
 x4 | x4 | x4 | x3 || x | x4 | x4 | x4 | x4 | x4 | x4 | x4 | x3 ||[K:C][M:4/4] x8 | x8 | x8 | x8 | %508
 x8 | x8 | x8 | x8 || x8 | x8 | x8 | x8 | x8 | x8 | x8 | x8 ||[K:G][M:4/4] x2 | x8 | x8 | x8 | x8 | %525
 x4 BG x2 | x8 | x8 | x6 || x2 | x8 | x8 | x8 | x8 | x8 | x8 | x8 | x8 | x4 BG x2 | x8 | x8 | x6 || %542
[K:A][M:2/4] x4 | x4 | x4 | x4 | x4 | x4 | x4 | x4 || x4 | x4 | x4 | x4 | x4 | x4 | x4 | x4 || %558
[K:D][M:2/4] x | x4 | x4 | x4 | x4 | x4 | x4 | x4 | x3 :| x | x4 | x4 | x4 | x4 | x4 | x4 | x4 | %575
 x3 ||[K:D][M:2/4] x | x4 | x4 | x4 | F=F x2 | x4 | x4 | x4 | x3 :| x | x4 | x4 | x4 | x4 | x4 | %591
 x4 | x4 | x3 ||[K:D][M:2/4] x4 | x4 | x4 | x4 | x4 | x4 | x4 | x4 :: x4 | x4 | x4 | x4 | x4 | x4 | %608
 x4 | x4 :| x4 | x4 | x4 | x4 | x4 | x4 | x4 | x4 ||[K:Bb][M:4/4] x8 | x8 | x8 | x8 | x8 | x8 | %624
 x8 | x8 || x8 | x8 | x8 | x8 | x8 | x8 | x8 | x8 | x8 | x8 | x8 | x8 | x8 | x8 ||[K:A][M:4/4] x2 | %641
 x8 | x8 | x8 | x8 | x8 | x8 | x5 e^d=d | x6 :| x2 | x8 | x8 | x8 | x8 | x8 | x8 | x5 e^d=d | x6 || %658
[K:C][M:3/4] x6 | x6 | x6 | ^G4 x2 :| x6 | x6 | x6 | x6 | x6 | x2 ED x2 | x6 | ^G4 x2 | x6 | x6 | %672
 x6 | x6 ||[M:3/4] x2 | x6 | x6 | x6 | x6 | x6 | x6 | x6 | x4 || x2 | x6 | x6 | x6 | x6 | x6 | x6 | %690
 x6 | x4 ||[K:A][M:2/4] x4 | x4 | x4 | x4 | x4 | x4 | x4 | x4 || x4 | x4 | x4 | x4 | x4 | x4 | x4 | %707
 x4 ||[K:D][M:2/4] x | x4 | x4 | x4 | x4 | x4 | x4 | x4 | x3 :: x | x4 | x4 | x4 | x4 | x4 | x4 | %724
 x4 | x3 :|[K:A][M:2/4] x | x4 | x4 | x4 | x4 | x4 | x4 | x2 ED | x3 :| x | x4 | x4 | x4 | x4 | %740
 x4 | x4 | x2 ED | x3 ||[K:D][M:2/4] x | x4 | x4 | x4 | x3 :| x | x4 | x4 | x4 | x4 | x4 | x4 | %756
 x4 | x3 ||[K:C][M:4/4] x2 | x8 | x8 | x8 | x8 | x8 | x8 | x8 | x8 | x8 | x8 | x8 | x8 | x8 | x8 | %773
 x8 | x6 ||[M:2/2] x4 | x8 | x8 | E"_dolce."G x6 | x4 :| x4 | x8 | x8 | E"_dolce."G x6 | x8 | x8 | %786
 x8 | x8 | x8 | x8 | x8 | E"_dolce."G x6 | x4 ||[K:D][M:6/8] x | x6 | x6 | x6 | x6 | x6 | x6 | x6 | %801
 x6 | x6 | x6 | x6 | x6 | x6 | x6 | x6 | x5 ||[K:C][M:4/4] x2 | x8 | x8 | x8 | x8 | x8 | x8 | x8 | %818
 x8 | x4 c/G/ B/G/ x2 | x8 | x8 | x8 | x8 | x6 ||[M:6/8] x6 | x6 | x6 | x6 | x6 | x6 | x6 | x6 | %833
 x6 | x6 | x6 | x6 | x6 | x6 | x6 | x6 | x6 | x6 | x6 | x6 |][K:G][M:2/4] x | x4 | x4 | x4 | x4 | %850
 x4 | x4 | x4 | x3 || x | x4 | x4 | x4 | x4 | x4 | x4 | x4 | x4 | x4 | x4 | x4 | x4 | x4 | x4 | %869
 x4 | x3 ||[K:D][M:3/4] x2 | x6 | x6 | x6 | x6 | x6 | x6 | x6 | x3 || x3 | x6 | x6 | x6 | x6 | x6 | %886
 x6 | x6 | x6 | x6 | x6 | x6 | x4 ||[K:A][M:4/4] x5/2 | x8 | x8 | x8 | x8 | x8 | x8 | x8 | x11/2 || %902
 x5/2 | x4 d4 | x8 | x8 | x8 | x8 | x8 | x8 | x8 | x8 | x8 | x8 | x15/2 ||[K:C][M:2/4] x4 | x4 | %917
 x4 | B2 x2 | ce d2 | ce d2 | x4 | z E/^D/ x2 || x4 | x4 | x4 | x4 | [Bd][Bd][Bd][Bd] | %928
 [Bd][Bd][Bd][Bd] | ce dc/B/ | x4 | x4 ||[K:A][M:2/4] x | x4 | x4 | x4 | x4 || x4 | x4 | x4 | x4 || %941
[K:A][M:2/4] x | x4 | x4 | x4 | x4 | x4 | x4 | x4 | x3 || x | x4 | x4 | x4 | x4 | x4 | x4 | x4 | %958
 x3 ||[K:D][M:4/4] x2 | x8 | x8 | x8 | x8 | x8 | x8 | x8 | x6 || x2 | x8 | x8 | x8 | x8 | x8 | x8 | %975
 x8 | x8 | x8 | x8 | x8 | x8 | x8 | x8 | x8 | x8 | x8 | x8 | x8 | x6 ||[K:C][M:4/4] x2 | x8 | x8 | %992
 x8 | x8 | x8 | x8 | x8 | x6 || x2 | x8 | x8 | x8 | x8 | x8 | x8 | x8 | x6 ||[K:D][M:4/4] x2 | x8 | %1009
 x8 | x8 | x6 :| x2 | x8 | x8 | x8 | x8 | x8 | x8 | x8 | x6 ||[K:D][M:4/4] x5/2 | x8 | x8 | x8 | %1025
 x6 || x2 | x8 | x8 | x8 | x8 | x8 | x8 | x8 | x8 | x8 | x8 | x8 | x8 | x8 | x8 | x8 | x8 | x8 | %1044
 x6 ||[K:A][M:2/4] x4 | x4 | x4 | x4 :| x4 | x4 | x4 | x4 | x4 | x4 | x4 | x4 ||[K:C][M:2/4] x | %1058
 x4 | x4 | x4 | x3 :| x | x4 | x4 | x4 | x4 | x4 | x4 | x4 | x3 ||[K:D][M:6/8] x2 | x6 | x6 | x6 | %1075
 x6 | x6 | x6 | x6 | x4 || x2 | x6 | x6 | x6 | x6 | x6 | x6 | x6 | x6 | x6 | x6 | x6 | x6 | x6 | %1094
 x4 |][K:D][M:6/8] x6 | x6 | x6 | x6 | x6 | x6 | x6 | x6 | x6 | x6 | x6 | x6 | x6 | x6 | _B,6 | %1110
 x6 | x6 | x6 | x6 | x6 | x6 | x6 | x6 | x3 || x3 | x3 A>AA | x6 | x3 AAA | x6 | x6 | x6 | x6 | %1127
 x6 | x3 ddd | x6 | x3 ddd | x6 | x6 | x6 | x6 | x6 | x6 | x6 || %1138
V:4
 x8 | x8 | x8 | x8 || x8 | x8 | x8 | x8 :| x8 | x8 | x8 | x8 ||[K:D][M:2/4] x4 | x4 | x4 | x4 | %16
 x4 | x4 | x4 | x4 || x4 | x4 | x4 | x4 | x4 | x4 | x4 | x4 | x2 A,2 | x4 | x4 | x4 | x4 | x4 | %34
 x4 | x4 | x4 | x4 | x4 | x4 |][K:D][M:3/8] x | x3 | x3 | x3 | x3 | x3 | x3 | x3 | x3 | x3 | x3 | %51
 x3 | x3 | x3 | x3 | x3 | x2 || x | x3 | x3 | x3 | x3 | x3 | x3 | x3 | x3 | x3 | x3 | x3 | x3 | %70
 x3 | x3 | x3 | x3 | x3 | x2 |][K:G][M:3/4] x2 | x6 | x6 | x6 | x4 :| x2 | x6 | x6 | x6 | x6 | x6 | %87
 x6 | x6 | x4 |][K:C][M:2/4] x4 | x4 | x4 | x4 | x4 | x4 | x4 | x4 :| x4 | x4 | x4 | x4 | x4 | x4 | %104
 x4 | x4 | x4 | x4 | x4 | x4 | x4 | x4 | x4 | x4 || x4 | x4 | x4 | x4 | x4 | x4 | x4 | x4 || x4 | %123
 x4 | x4 | x4 | x4 | x4 | x4 | x4 ||[M:4/4] x2 | x8 | x8 | x8 | x8 || x8 | x8 | x8 | x8 | x8 | x8 | %141
 x8 | x8 | x8 | x8 | x8 | x6 ||[M:2/4] x | x4 | x4 | x4 | x4 | x4 | x4 | x4 | x3 :| x | x4 | x4 | %159
 x4 | x4 | x4 | x4 | x4 | x4 | x4 | x4 | x4 | x4 | x4 | x4 | x4 | x4 | x4 | x4 | x4 | x4 | x4 | %178
 x4 | x4 | x3 |][M:2/4] x | x4 | x4 | x4 | x4 | x4 | x4 | x4 | x3 :| x | x4 | x4 | x4 | x4 | x4 | %196
 x4 | x4 | x3 |][K:A][M:3/4] x2 | x6 | x6 | x6 | x6 | x6 | x6 | x6 | x5 :: x | x6 | x6 | x6 | x6 | %213
 x6 | x6 | x6 | x4 :|[K:C][M:6/8] x | x6 | x6 | x6 | x5 :| x | x6 | x6 | x6 | x6 | x6 | x6 | x6 | %230
 x5 ||[K:A][M:2/4] x | x4 | x4 | x4 | x3 :| x | x4 | x4 | x4 | x4 | x4 | x4 | x3 || %244
[K:G][M:4/4] x8 | x8 | x8 | x8 | x8 | x8 | x8 | x8 || x8 | x8 | x8 | x8 | x8 | x8 | x8 | x8 || %260
[K:G][M:4/4] x2 | x8 | x8 | x8 | x8 | x8 | x8 | x8 | x8 | x8 | x8 | x8 | x8 | x8 | x8 | x8 | x6 || %277
[K:E][M:3/4] x2 | x6 | x6 | x6 | x6 || x6 | x6 | x6 | x4 :| x2 | x6 | x6 | x6 | x6 | x6 | x6 | x6 | %294
 x4 ||[K:G][M:2/4] x4 | x4 | x4 | x4 :: x4 | x4 | x4 | x4 :|[K:C][M:4/4] x8 | x8 | x8 | x8 | x8 | %308
 x8 | x8 | x8 | x8 | x8 ||[M:3/4] x2 | x6 | x6 | x6 | x4 :| x2 | x6 | x6 | x6 | x6 | x6 | x4 || %325
[M:4/4] x2 | x8 | x8 | x8 | x6 || x2 | x8 | x8 | x8 | x6 ||[M:2/4] x | x4 | x4 | x4 | x4 | x4 | %341
 x4 | x4 | x3 :: x | x4 | x4 | x4 | x4 | x4 | x4 | x4 | x3 :|[M:2/4] x4 | x4 | x4 | x4 | x4 | x4 | %359
 x4 | x4 || x4 | x4 | x4 | x4 | x4 | x4 | x4 | x4 | x4 | x4 | x4 | x4 | x4 | x4 | x4 | x4 || %377
[M:2/4] x4 | x4 | x4 | x4 | x4 | x4 | x4 | x4 | x4 | x4 | x4 | x4 | x4 | x4 | x4 | x4 || %393
[M:4/4] x2 | x8 | x8 | x8 | x8 | x8 | x8 | x8 | x6 || x2 | x8 | x8 | x8 | x8 | x8 | x8 | x8 | x8 | %411
 x8 | x6 ||[M:4/4] x2 | x8 | x8 | x8 | x8 | x8 | x8 | x8 | x8 || x8 | x8 | x8 | x8 | x8 | x8 | x8 | %429
 x8 | x8 | x8 | x8 | x8 ||[K:A][M:2/4] x | x4 | x4 | x4 | x4 | x4 | x4 | x4 | x3 || x | x4 | x4 | %446
 x4 | x4 | x4 | x4 | x4 | x3 ||[K:A][M:2/4] x4 | x4 | x4 | x4 | x4 | x4 | x4 | x4 :: x4 | x4 | x4 | %463
 x4 | x4 | x4 | x4 | x4 :|[K:C][M:3/8] x3 | x3 | x3 | x3 | x3 | x3 :| x3 | x3 | x3 | x3 | x3 | x3 | %480
 x3 | x3 | x3 | x3 | x3 | x3 ||[K:D][M:2/4] x | x4 | x4 | x4 | x4 | x4 | x4 | x4 | x3 || x | x4 | %497
 x4 | x4 | x4 | x4 | x4 | x4 | x3 ||[K:C][M:4/4] x8 | x8 | x8 | x8 | x8 | x8 | x8 | x8 || x8 | x8 | %514
 x8 | x8 | x8 | x8 | x8 | x8 ||[K:G][M:4/4] x2 | x8 | x8 | x8 | x8 | x8 | x8 | x8 | x6 || x2 | x8 | %531
 x8 | x8 | x8 | x8 | x8 | x8 | x8 | x8 | x8 | x8 | x6 ||[K:A][M:2/4] x4 | x4 | x4 | x4 | x4 | x4 | %548
 x4 | x4 || x4 | x4 | x4 | x4 | x4 | x4 | x4 | x4 ||[K:D][M:2/4] x | x4 | x4 | x4 | x4 | x4 | x4 | %565
 x4 | x3 :| x | x4 | x4 | x4 | x4 | x4 | x4 | x4 | x3 ||[K:D][M:2/4] x | x4 | x4 | x4 | x4 | x4 | %582
 x4 | x4 | x3 :| x | x4 | x4 | x4 | x4 | x4 | x4 | x4 | x3 ||[K:D][M:2/4] x4 | x4 | x4 | x4 | x4 | %599
 x4 | x4 | x4 :: x4 | x4 | x4 | x4 | x4 | x4 | x4 | x4 :| x4 | x4 | x4 | x4 | x4 | x4 | x4 | x4 || %618
[K:Bb][M:4/4] x8 | x8 | x8 | x8 | x8 | x8 | x8 | x8 || x8 | x8 | x8 | x8 | x8 | x8 | x8 | x8 | x8 | %635
 x8 | x8 | x8 | x8 | x8 ||[K:A][M:4/4] x2 | x8 | x8 | x8 | x8 | x8 | x8 | x8 | x6 :| x2 | x8 | x8 | %652
 x8 | x8 | x8 | x8 | x8 | x6 ||[K:C][M:3/4] x6 | x6 | x6 | x6 :| x6 | x6 | x6 | x6 | x6 | x6 | x6 | %669
 x6 | x6 | x6 | x6 | x6 ||[M:3/4] x2 | x6 | x6 | x6 | x6 | x6 | x6 | x6 | x4 || x2 | x6 | x6 | x6 | %687
 x6 | x6 | x6 | x6 | x4 ||[K:A][M:2/4] x4 | x4 | x4 | x4 | x4 | x4 | x4 | x4 || x4 | x4 | x4 | x4 | %704
 x4 | x4 | x4 | x4 ||[K:D][M:2/4] x | x4 | x4 | x4 | x4 | x4 | x4 | x4 | x3 :: x | x4 | x4 | x4 | %721
 x4 | x4 | x4 | x4 | x3 :|[K:A][M:2/4] x | x4 | x4 | x4 | x4 | x4 | x4 | x4 | x3 :| x | x4 | x4 | %738
 x4 | x4 | x4 | x4 | x4 | x3 ||[K:D][M:2/4] x | x4 | x4 | x4 | x3 :| x | x4 | x4 | x4 | x4 | x4 | %755
 x4 | x4 | x3 ||[K:C][M:4/4] x2 | x8 | x8 | x8 | x8 | x8 | x8 | x8 | x8 | x8 | x8 | x8 | x8 | x8 | %772
 x8 | x8 | x6 ||[M:2/2] x4 | x8 | x8 | x8 | x4 :| x4 | x8 | x8 | x8 | x8 | x8 | x8 | x8 | x8 | x8 | %790
 x8 | x8 | x4 ||[K:D][M:6/8] x | x6 | x6 | x6 | x6 | x6 | x6 | x6 | x6 | x6 | x6 | x6 | x6 | x6 | %807
 x6 | x6 | x5 ||[K:C][M:4/4] x2 | x8 | x8 | x8 | x8 | x8 | x8 | x8 | x8 | x8 | x8 | x8 | x8 | x8 | %824
 x6 ||[M:6/8] x6 | x6 | x6 | x6 | x6 | x6 | x6 | x6 | x6 | x6 | x6 | x6 | x6 | x6 | x6 | x6 | x6 | %842
 x6 | x6 | x6 |][K:G][M:2/4] x | x4 | x4 | x4 | x4 | x4 | x4 | x4 | x3 || x | x4 | x4 | x4 | x4 | %859
 x4 | x4 | x4 | x4 | x4 | x4 | x4 | x4 | x4 | x4 | x4 | x3 ||[K:D][M:3/4] x2 | x6 | x6 | x6 | x6 | %876
 x6 | x6 | x6 | x3 || x3 | x6 | x6 | x6 | x6 | x6 | x6 | x6 | x6 | x6 | x6 | x6 | x4 || %893
[K:A][M:4/4] x5/2 | x8 | x8 | x8 | x8 | x8 | x8 | x8 | x11/2 || x5/2 | x8 | x8 | x8 | x8 | x8 | %908
 x8 | x8 | x8 | x8 | x8 | x8 | x15/2 ||[K:C][M:2/4] x4 | x4 | x4 | x4 | x4 | x4 | x4 | x4 || x4 | %924
 x4 | x4 | x4 | x4 | x4 | x4 | x4 | x4 ||[K:A][M:2/4] x | x4 | x4 | x4 | x4 || x4 | x4 | x4 | x4 || %941
[K:A][M:2/4] x | x4 | x4 | x4 | x4 | x4 | x4 | x4 | x3 || x | x4 | x4 | x4 | x4 | x4 | x4 | x4 | %958
 x3 ||[K:D][M:4/4] x2 | x8 | x8 | x8 | x8 | x8 | x8 | x8 | x6 || x2 | x8 | x8 | x8 | x8 | x8 | x8 | %975
 x8 | x8 | x8 | x8 | x8 | x8 | x8 | x8 | x8 | x8 | x8 | x8 | x8 | x6 ||[K:C][M:4/4] x2 | x8 | x8 | %992
 x8 | x8 | x8 | x8 | x8 | x6 || x2 | x8 | x8 | x8 | x8 | x8 | x8 | x8 | x6 ||[K:D][M:4/4] x2 | x8 | %1009
 x8 | x8 | x6 :| x2 | x8 | x8 | x8 | x8 | x8 | x8 | x8 | x6 ||[K:D][M:4/4] x5/2 | x8 | x8 | x8 | %1025
 x6 || x2 | x8 | x8 | x8 | x8 | x8 | x8 | x8 | x8 | x8 | x8 | x8 | x8 | x8 | x8 | x8 | x8 | x8 | %1044
 x6 ||[K:A][M:2/4] x4 | x4 | x4 | x4 :| x4 | x4 | x4 | x4 | x4 | x4 | x4 | x4 ||[K:C][M:2/4] x | %1058
 x4 | x4 | x4 | x3 :| x | x4 | x4 | x4 | x4 | x4 | x4 | x4 | x3 ||[K:D][M:6/8] x2 | x6 | x6 | x6 | %1075
 x6 | x6 | x6 | x6 | x4 || x2 | x6 | x6 | x6 | x6 | x6 | x6 | x6 | x6 | x6 | x6 | x6 | x6 | x6 | %1094
 x4 |][K:D][M:6/8] x6 | x6 | x6 | x6 | x6 | x6 | x6 | x6 | x6 | x6 | x6 | x6 | x6 | x6 | x6 | x6 | %1111
 x6 | x6 | x6 | x6 | x6 | x6 | x6 | x3 || x3 | x6 | x6 | x6 | x6 | x6 | x6 | x6 | x6 | x6 | x6 | %1130
 x6 | x6 | x6 | x6 | x6 | x6 | x6 | x6 || %1138

